!!!!SEGMENT: pl-cz--iii-112--001-007_dankowski-adalbert--vesperae-d-gloria-patri.krn
!!!cenid: 18xx:804
!!!COM: Dankowski, Adalbert
!!!COM-rismID: pe30000793
!!!CDT: ~1760-~1836
!!!CNT: Polish
!!!OPR: Vesperae D
!!!OTL: Gloria patri
!!!OMV: 007
!!!PDT:
!!!AGN: Sacred; Vespers
!!!SMS-siglum: PL-CZ
!!!SMS-shelfmark: III-112
!!!SMS-shelfwork: 001-007 M
!!!SMS-variant:
!!!SMS-altvar:
!!!NIFC-rismSourceID: 300033579
!!!NIFC-rismChildID: 300033579
!!!NIFC-islandoraID: pl-cz:34440
!!!URL-pdf-islandora: https://repozytorium.nifc.pl/islandora/object/pl-cz%3A34440/datastream/PDF/view
!!!URL-scan: https://polish.musicsources.pl/pl/lokalizacje/galeria/rekopisy/6829/1 @EN{Scan on Polish Music Sources Website} @PL{Skany w portalu Dziedzictwo Muzyki Polskiej w otwartym dostępie}
!!!IIIF:
!!!ONB-nifc: UWAGA: części Vesperae: Dixit Dominus, Tecum principium, Dominus, Gloria patri, Nunc dimittis – Magnificat, Et misericordia, Gloria patri
!!!OMD: Adagio
!!!AIN: 1 alto 1 bass 1 organ 1 soprn 1 tenor 2 tromp 2 violn
!!!key: D
**kern	**fba	**dynam	**kern	**dynam	**kern	**dynam	**kern	**text	**dynam	**kern	**text	**dynam	**kern	**text	**dynam	**kern	**text	**dynam	**kern	**kern
*part9	*part9	*part9	*part8	*part8	*part7	*part7	*part6	*part6	*part6	*part5	*part5	*part5	*part4	*part4	*part4	*part3	*part3	*part3	*part2	*part1
*staff9	*staff9	*	*staff8	*	*staff7	*	*staff6	*staff6	*	*staff5	*staff5	*	*staff4	*staff4	*	*staff3	*staff3	*	*staff2	*staff1
*I"Organo	*	*	*I"Violino Secondo	*	*I"Violino Primo	*	*I"Baſso	*	*	*I"Tenore	*	*	*I"Alto	*	*	*I"Canto	*	*	*I"Clarino Secondo	*I"Clarino Primo Ex D:
*I'org	*	*	*I'vl 2	*	*I'vl 1	*	*I'B	*	*	*I'T	*	*	*I'A	*	*	*I'S	*	*	*I'clno 2 in D	*I'clno 1 in D
*Iorgan	*	*	*Ivioln	*	*Ivioln	*	*Ibass	*	*	*Itenor	*	*	*Ialto	*	*	*Isoprn	*	*	*Itromp	*Itromp
*ICklav	*	*	*ICstr	*	*ICstr	*	*ICvox	*	*	*ICvox	*	*	*ICvox	*	*	*ICvox	*	*	*ICbras	*ICbras
*clefF4	*	*	*clefG2	*	*clefG2	*	*clefF4	*	*	*clefC4	*	*	*clefC3	*	*	*clefC1	*	*	*clefG2	*clefG2
*	*	*	*	*	*	*	*	*	*	*	*	*	*	*	*	*	*	*	*ITrd-1c-2	*ITrd-1c-2
*k[f#c#]	*	*	*k[f#c#]	*	*k[f#c#]	*	*k[f#c#]	*	*	*k[f#c#]	*	*	*k[f#c#]	*	*	*k[f#c#]	*	*	*k[f#c#]	*k[f#c#]
*D:	*	*	*D:	*	*D:	*	*D:	*	*	*D:	*	*	*D:	*	*	*D:	*	*	*D:	*D:
*M2/4	*	*	*M2/4	*	*M2/4	*	*M2/4	*	*	*M2/4	*	*	*M2/4	*	*	*M2/4	*	*	*M2/4	*M2/4
=1	=1	=1	=1	=1	=1	=1	=1	=1	=1	=1	=1	=1	=1	=1	=1	=1	=1	=1	=1	=1
!LO:TX:a:i:t=tutti	!	!	!	!	!	!	!	!	!	!	!	!	!	!	!	!	!	!	!	!LO:TX:a:i:t=adag&colon;
!LO:TX:a:i:t=adag	!	!	!LO:TX:a:i:t=adag&colon;	!LO:DY:a:t=for	!LO:TX:a:i:t=adag&colon;	!LO:DY:a:t=for	!LO:TX:a:i:t=adag&colon;	!	!	!LO:TX:a:i:t=adag&colon;	!	!	!LO:TX:a:i:t=adag&colon;	!	!	!LO:TX:a:i:t=adag&colon;	!	!	!LO:TX:a:i:t=adagio	!
8D\L	.	.	8.ff#\L	f	8.ff#\L	f	4D\	glo-	.	4d\	Glo-	.	4a\	glo-	.	4ff#\	glo-	.	4dd\	4ff#\
8D\	.	.	.	.	.	.	.	.	.	.	.	.	.	.	.	.	.	.	.	.
.	.	.	16dd\Jk	.	16dd\Jk	.	.	.	.	.	.	.	.	.	.	.	.	.	.	.
8D\	.	.	16ff#\LL	.	16ff#\LL	.	8D\	-ri-	.	8d\	-ri-	.	8a\	-ri-	.	8ff#\	-ri-	.	4dd\	4ff#\
.	.	.	16dd\	.	16dd\	.	.	.	.	.	.	.	.	.	.	.	.	.	.	.
8D\J	.	.	16aa\	.	16aa\	.	8D\	-a	.	8d\	-a	.	8a\	-a	.	8ff#\	-a	.	.	.
.	.	.	16ff#\JJ	.	16ff#\JJ	.	.	.	.	.	.	.	.	.	.	.	.	.	.	.
=2	=2	=2	=2	=2	=2	=2	=2	=2	=2	=2	=2	=2	=2	=2	=2	=2	=2	=2	=2	=2
*	*	*	*Xtuplet	*	*Xtuplet	*	*	*	*	*	*	*	*	*	*	*	*	*	*	*
!	!	!	!	!	!	!	!	!	!	!	!	!	!	!	!	!	!	!	!LO:TX:t=P:problem=mixed beam	!
8A\L	.	.	24ee\LL	.	24ee\LL	.	8A\	pa-	.	8c#\	pa-	.	8a\	pa-	.	8ee\	pa-	.	8a/L	8ee\L
.	.	.	24ff#\	.	24ff#\	.	.	.	.	.	.	.	.	.	.	.	.	.	.	.
.	.	.	24gg\JJ	.	24gg\JJ	.	.	.	.	.	.	.	.	.	.	.	.	.	.	.
8D\J	.	.	16ff#\LL	.	16ff#\LL	.	8D\	-tri	.	8d\	-tri	.	8a\	-tri	.	8ff#\	-tri	.	8dd\J	8ff#\J
.	.	.	16aa\JJ	.	16aa\JJ	.	.	.	.	.	.	.	.	.	.	.	.	.	.	.
4r	.	.	24aa\LL	.	24aa\LL	.	4r	.	.	4r	.	.	4r	.	.	4r	.	.	4r	4r
.	.	.	24gg\	.	24gg\	.	.	.	.	.	.	.	.	.	.	.	.	.	.	.
.	.	.	24ff#\JJ	.	24ff#\JJ	.	.	.	.	.	.	.	.	.	.	.	.	.	.	.
.	.	.	24ee\LL	.	24ee\LL	.	.	.	.	.	.	.	.	.	.	.	.	.	.	.
.	.	.	24dd\	.	24dd\	.	.	.	.	.	.	.	.	.	.	.	.	.	.	.
.	.	.	24cc#\JJ	.	24cc#\JJ	.	.	.	.	.	.	.	.	.	.	.	.	.	.	.
=3	=3	=3	=3	=3	=3	=3	=3	=3	=3	=3	=3	=3	=3	=3	=3	=3	=3	=3	=3	=3
8D\L	.	.	16dd\LL	.	16dd\LL	.	4D\	glo-	.	4d\	glo-	.	4a\	glo-	.	4ff#\	glo-	.	4dd\	4ff#\
.	.	.	16ff#\	.	16ff#\	.	.	.	.	.	.	.	.	.	.	.	.	.	.	.
8D\	.	.	16ff#\	.	16ff#\	.	.	.	.	.	.	.	.	.	.	.	.	.	.	.
.	.	.	16aa\JJ	.	16aa\JJ	.	.	.	.	.	.	.	.	.	.	.	.	.	.	.
8D\	.	.	16gg\LL	.	16gg\LL	.	8D\	-ri-	.	8A\	-ri-	.	8f#\	-ri-	.	8dd\	-ri-	.	4dd\	4ff#\
.	.	.	16ff#\	.	16ff#\	.	.	.	.	.	.	.	.	.	.	.	.	.	.	.
8F#\J	6	.	16ee\	.	16ee\	.	8E\	-a	.	8A\	-a	.	8f#\	-a	.	8dd\	-a	.	.	.
.	.	.	16dd\JJ	.	16dd\JJ	.	.	.	.	.	.	.	.	.	.	.	.	.	.	.
=4	=4	=4	=4	=4	=4	=4	=4	=4	=4	=4	=4	=4	=4	=4	=4	=4	=4	=4	=4	=4
8G\L	4 2	.	8cc#\L	.	8cc#\L	.	16G\	fi-	.	16A\	fi-	.	16e\	fi-	.	16cc#\	fi-	.	8a/L	8ee\L
.	.	.	.	.	.	.	16G\	-li-	.	16A\	-li-	.	16e\	-li-	.	16cc#\	-li-	.	.	.
8F#\J	6	.	16dd\L	.	16dd\L	.	8F#\	-o	.	8A\	-o	.	8f#\	-o	.	8dd\	-o	.	8f#/J	8dd\J
.	.	.	16a\JJ	.	16a\JJ	.	.	.	.	.	.	.	.	.	.	.	.	.	.	.
4r	.	.	16ff#\LL	.	16ff#\LL	.	4r	.	.	4r	.	.	4r	.	.	4r	.	.	4r	4r
.	.	.	16dd\	.	16dd\	.	.	.	.	.	.	.	.	.	.	.	.	.	.	.
.	.	.	16aa\	.	16aa\	.	.	.	.	.	.	.	.	.	.	.	.	.	.	.
.	.	.	16gg\JJ	.	16gg\JJ	.	.	.	.	.	.	.	.	.	.	.	.	.	.	.
!	!	!	!LO:LB:g=original	!	!LO:LB:g=original	!	!LO:LB:g=original	!	!	!LO:LB:g=original	!	!	!LO:LB:g=original	!	!	!LO:LB:g=original	!	!	!	!
=5	=5	=5	=5	=5	=5	=5	=5	=5	=5	=5	=5	=5	=5	=5	=5	=5	=5	=5	=5	=5
8d\L	.	.	16ff#\LL	.	16ff#\LL	.	4d\	&	.	4d\	&	.	4a\	&	.	4ff#\	&	.	4dd\	4ff#\
.	.	.	32aa\L	.	32aa\L	.	.	.	.	.	.	.	.	.	.	.	.	.	.	.
.	.	.	32gg\JJJ	.	32gg\JJJ	.	.	.	.	.	.	.	.	.	.	.	.	.	.	.
8d\	.	.	16ff#\LL	.	16ff#\LL	.	.	.	.	.	.	.	.	.	.	.	.	.	.	.
.	.	.	16ff#\JJ	.	16ff#\JJ	.	.	.	.	.	.	.	.	.	.	.	.	.	.	.
8c#\	6	.	16ee\LL	.	16ee\LL	.	4c#\	ſpi-	.	4e\	ſpi-	.	4a\	ſpi-	.	4ee\	ſpi-	.	4ee\	4gg\
.	.	.	16ff#\	.	16ff#\	.	.	.	.	.	.	.	.	.	.	.	.	.	.	.
8c#\J	.	.	16gg\	.	16gg\	.	.	.	.	.	.	.	.	.	.	.	.	.	.	.
.	.	.	16ee\JJ	.	16ee\JJ	.	.	.	.	.	.	.	.	.	.	.	.	.	.	.
!LO:LB:g=original	!	!	!	!	!	!	!	!	!	!	!	!	!	!	!	!	!	!	!	!
=6	=6	=6	=6	=6	=6	=6	=6	=6	=6	=6	=6	=6	=6	=6	=6	=6	=6	=6	=6	=6
8B\L	.	.	16dd\LL	.	16dd\LL	.	4B\	-ri-	.	4d\	-ri-	.	4f#\	-ri-	.	4dd\	-ri-	.	4dd\	4ff#\
.	.	.	32ff#\L	.	32ff#\L	.	.	.	.	.	.	.	.	.	.	.	.	.	.	.
.	.	.	32ee\JJJ	.	32ee\JJJ	.	.	.	.	.	.	.	.	.	.	.	.	.	.	.
8B\	.	.	16dd\LL	.	16dd\LL	.	.	.	.	.	.	.	.	.	.	.	.	.	.	.
.	.	.	16dd\JJ	.	16dd\JJ	.	.	.	.	.	.	.	.	.	.	.	.	.	.	.
8A\	6	.	16cc#\LL	.	16cc#\LL	.	8A\	-tu-	.	8c#\	-tu-	.	8f#\	-tu-	.	8cc#\	-tu-	.	4a/	4ee\
.	.	.	16dd\	.	16dd\	.	.	.	.	.	.	.	.	.	.	.	.	.	.	.
8A\J	.	.	16ee\	.	16ee\	.	8A\	-i	.	8c#\	-i	.	8f#\	-i	.	8cc#\	-i	.	.	.
.	.	.	16cc#\JJ	.	16cc#\JJ	.	.	.	.	.	.	.	.	.	.	.	.	.	.	.
=7	=7	=7	=7	=7	=7	=7	=7	=7	=7	=7	=7	=7	=7	=7	=7	=7	=7	=7	=7	=7
*	*	*	*	*	*	*	*2\right	*	*	*2\right	*	*	*2\right	*	*	*2\right	*	*	*	*
8G#X\L	6 5	.	16cc#\LL	.	16cc#\LL	.	2G#X\	ſan-	.	2B\	ſan-	.	2e\	ſan-	.	2dd\	ſan-	.	8ee\L	8ee\L
.	.	.	16b\	.	16b\	.	.	.	.	.	.	.	.	.	.	.	.	.	.	.
8G#\	_ _	.	16dd\	.	16dd\	.	.	.	.	.	.	.	.	.	.	.	.	.	8ee\	8ee\
.	.	.	16ee\JJ	.	16ee\JJ	.	.	.	.	.	.	.	.	.	.	.	.	.	.	.
8G#\	.	.	16dd\LL	.	16dd\LL	.	.	.	.	.	.	.	.	.	.	.	.	.	8ee\	8ee\
.	.	.	16ee\	.	16ee\	.	.	.	.	.	.	.	.	.	.	.	.	.	.	.
8G#\J	x x	.	16b\	.	16b\	.	.	.	.	.	.	.	.	.	.	.	.	.	8ee\J	8ee\J
.	.	.	16dd\JJ	.	16dd\JJ	.	.	.	.	.	.	.	.	.	.	.	.	.	.	.
=8	=8	=8	=8	=8	=8	=8	=8	=8	=8	=8	=8	=8	=8	=8	=8	=8	=8	=8	=8	=8
!LO:TX:t=P:problem=mixed beam	!	!	!	!	!	!	!	!	!	!	!	!	!	!	!	!	!	!	!	!
8A\L	.	.	16cc#\LL	.	16cc#\LL	.	4A\	-cto	.	4c#\	-cto	.	4e\	-cto	.	4cc#\	-cto	.	4a/	4ee\
.	.	.	16ee\	.	16ee\	.	.	.	.	.	.	.	.	.	.	.	.	.	.	.
8AA/J	.	.	16gg#X\	.	16gg#X\	.	.	.	.	.	.	.	.	.	.	.	.	.	.	.
.	.	.	16aa\JJ	.	16aa\JJ	.	.	.	.	.	.	.	.	.	.	.	.	.	.	.
4AA/	.	.	4a/	.	4a/	.	4r	.	.	4r	.	.	4r	.	.	4r	.	.	4r	4r
!LO:LB:g=original	!	!	!LO:PB:g=original	!	!LO:LB:g=original	!	!LO:LB:g=original	!	!	!LO:LB:g=original	!	!	!LO:LB:g=original	!	!	!LO:LB:g=original	!	!	!LO:LB:g=original	!LO:LB:g=original
==9	==9	==9	==9	==9	==9	==9	==9	==9	==9	==9	==9	==9	==9	==9	==9	==9	==9	==9	==9	==9
*M3/8	*	*	*M3/8	*	*M3/8	*	*M3/8	*	*	*M3/8	*	*	*M3/8	*	*	*M3/8	*	*	*M3/8	*M3/8
!LO:TX:a:i:t=allo	!	!	!LO:TX:a:i:t=allo	!	!LO:TX:a:i:t=allo	!	!	!	!	!	!	!	!	!	!	!	!	!	!LO:TX:a:i:t=allo	!LO:TX:a:i:t=allo
8r	.	.	8r	.	8a/	.	8r	.	.	8r	.	.	8r	.	.	8r	.	.	8r	8r
=10	=10	=10	=10	=10	=10	=10	=10	=10	=10	=10	=10	=10	=10	=10	=10	=10	=10	=10	=10	=10
!	!	!LO:DY:a:t=pio	!LO:TX:a:i:t=ſolo	!	!LO:TX:a:i:t=ſolo	!	!	!	!	!	!	!	!	!	!	!	!	!	!LO:TX:b:t=8.	!
4D\	.	p	16f#'/LL	.	8dd\L	.	1.r	.	.	1.r	.	.	1.r	.	.	1.r	.	.	1.r	1.r
.	.	.	16e'/	.	.	.	.	.	.	.	.	.	.	.	.	.	.	.	.	.
.	.	.	16f#'/	.	8dd\	.	.	.	.	.	.	.	.	.	.	.	.	.	.	.
.	.	.	16g'/	.	.	.	.	.	.	.	.	.	.	.	.	.	.	.	.	.
8r	.	.	16a'/	.	8dd\J	.	.	.	.	.	.	.	.	.	.	.	.	.	.	.
.	.	.	16f#'/JJ	.	.	.	.	.	.	.	.	.	.	.	.	.	.	.	.	.
=11	=11	=11	=11	=11	=11	=11	=11	=11	=11	=11	=11	=11	=11	=11	=11	=11	=11	=11	=11	=11
4E\	6 5	.	16g'/LL	.	4cc#\	.	.	.	.	.	.	.	.	.	.	.	.	.	.	.
.	.	.	16a'/	.	.	.	.	.	.	.	.	.	.	.	.	.	.	.	.	.
.	.	.	16g'/	.	.	.	.	.	.	.	.	.	.	.	.	.	.	.	.	.
.	.	.	16f#'/	.	.	.	.	.	.	.	.	.	.	.	.	.	.	.	.	.
8r	.	.	16e'/	.	(32cc#\LLL	.	.	.	.	.	.	.	.	.	.	.	.	.	.	.
.	.	.	.	.	32b\	.	.	.	.	.	.	.	.	.	.	.	.	.	.	.
.	.	.	16f#'/JJ	.	32cc#\	.	.	.	.	.	.	.	.	.	.	.	.	.	.	.
.	.	.	.	.	32dd\JJJ)	.	.	.	.	.	.	.	.	.	.	.	.	.	.	.
=12	=12	=12	=12	=12	=12	=12	=12	=12	=12	=12	=12	=12	=12	=12	=12	=12	=12	=12	=12	=12
4C#/	6 5	.	16g'/LL	.	8ee\L	.	.	.	.	.	.	.	.	.	.	.	.	.	.	.
.	.	.	16f#'/	.	.	.	.	.	.	.	.	.	.	.	.	.	.	.	.	.
.	.	.	16e'/	.	8ee\	.	.	.	.	.	.	.	.	.	.	.	.	.	.	.
.	.	.	16g'/	.	.	.	.	.	.	.	.	.	.	.	.	.	.	.	.	.
8r	.	.	16a'/	.	8ee\J	.	.	.	.	.	.	.	.	.	.	.	.	.	.	.
.	.	.	16g'/JJ	.	.	.	.	.	.	.	.	.	.	.	.	.	.	.	.	.
=13	=13	=13	=13	=13	=13	=13	=13	=13	=13	=13	=13	=13	=13	=13	=13	=13	=13	=13	=13	=13
4D\	.	.	16f#'/LL	.	4dd\	.	.	.	.	.	.	.	.	.	.	.	.	.	.	.
.	.	.	16g'/	.	.	.	.	.	.	.	.	.	.	.	.	.	.	.	.	.
.	.	.	16a'/	.	.	.	.	.	.	.	.	.	.	.	.	.	.	.	.	.
.	.	.	16f#'/	.	.	.	.	.	.	.	.	.	.	.	.	.	.	.	.	.
8r	.	.	16e'/	.	(32dd\LLL	.	.	.	.	.	.	.	.	.	.	.	.	.	.	.
.	.	.	.	.	32cc#\	.	.	.	.	.	.	.	.	.	.	.	.	.	.	.
.	.	.	16f#'/JJ	.	32dd\	.	.	.	.	.	.	.	.	.	.	.	.	.	.	.
.	.	.	.	.	32ee\JJJ)	.	.	.	.	.	.	.	.	.	.	.	.	.	.	.
!	!	!	!LO:LB:g=original	!	!	!	!	!	!	!	!	!	!	!	!	!	!	!	!	!
=14	=14	=14	=14	=14	=14	=14	=14	=14	=14	=14	=14	=14	=14	=14	=14	=14	=14	=14	=14	=14
4D\	.	.	16d'/LL	.	8ff#\L	.	1.r	.	.	1.r	.	.	1.r	.	.	1.r	.	.	1.r	1.r
.	.	.	16e'/	.	.	.	.	.	.	.	.	.	.	.	.	.	.	.	.	.
.	.	.	16f#'/	.	8dd\	.	.	.	.	.	.	.	.	.	.	.	.	.	.	.
.	.	.	16g'/	.	.	.	.	.	.	.	.	.	.	.	.	.	.	.	.	.
8r	.	.	16a'/	.	8ff#\J	.	.	.	.	.	.	.	.	.	.	.	.	.	.	.
.	.	.	16f#'/JJ	.	.	.	.	.	.	.	.	.	.	.	.	.	.	.	.	.
=15	=15	=15	=15	=15	=15	=15	=15	=15	=15	=15	=15	=15	=15	=15	=15	=15	=15	=15	=15	=15
4AA/	.	.	16e'/LL	.	4ee\	.	.	.	.	.	.	.	.	.	.	.	.	.	.	.
.	.	.	16f#'/	.	.	.	.	.	.	.	.	.	.	.	.	.	.	.	.	.
.	.	.	16g'/	.	.	.	.	.	.	.	.	.	.	.	.	.	.	.	.	.
.	.	.	16e'/	.	.	.	.	.	.	.	.	.	.	.	.	.	.	.	.	.
8r	.	.	16c#'/	.	8cc#\	.	.	.	.	.	.	.	.	.	.	.	.	.	.	.
.	.	.	16e'/JJ	.	.	.	.	.	.	.	.	.	.	.	.	.	.	.	.	.
=16	=16	=16	=16	=16	=16	=16	=16	=16	=16	=16	=16	=16	=16	=16	=16	=16	=16	=16	=16	=16
4D\	.	.	16f#'/LL	.	8dd\L	.	.	.	.	.	.	.	.	.	.	.	.	.	.	.
.	.	.	16e'/	.	.	.	.	.	.	.	.	.	.	.	.	.	.	.	.	.
.	.	.	16f#'/	.	8ff#\	.	.	.	.	.	.	.	.	.	.	.	.	.	.	.
.	.	.	16g'/	.	.	.	.	.	.	.	.	.	.	.	.	.	.	.	.	.
8r	.	.	16a'/	.	8dd\J	.	.	.	.	.	.	.	.	.	.	.	.	.	.	.
.	.	.	16f#'/JJ	.	.	.	.	.	.	.	.	.	.	.	.	.	.	.	.	.
!	!	!	!	!	!LO:LB:g=original	!	!	!	!	!	!	!	!	!	!	!	!	!	!	!
=17	=17	=17	=17	=17	=17	=17	=17	=17	=17	=17	=17	=17	=17	=17	=17	=17	=17	=17	=17	=17
4AA/	.	.	16g'/LL	.	4cc#\	.	.	.	.	.	.	.	.	.	.	.	.	.	.	.
.	.	.	16f#'/	.	.	.	.	.	.	.	.	.	.	.	.	.	.	.	.	.
.	.	.	16e'/	.	.	.	.	.	.	.	.	.	.	.	.	.	.	.	.	.
.	.	.	16d'/	.	.	.	.	.	.	.	.	.	.	.	.	.	.	.	.	.
8r	.	.	16c#'/	.	24a\LL	.	.	.	.	.	.	.	.	.	.	.	.	.	.	.
.	.	.	.	.	24b\	.	.	.	.	.	.	.	.	.	.	.	.	.	.	.
.	.	.	16e'/JJ	.	.	.	.	.	.	.	.	.	.	.	.	.	.	.	.	.
.	.	.	.	.	24cc#\JJ	.	.	.	.	.	.	.	.	.	.	.	.	.	.	.
!LO:LB:g=original	!	!	!	!	!	!	!	!	!	!	!	!	!	!	!	!	!	!	!	!
=18	=18	=18	=18	=18	=18	=18	=18	=18	=18	=18	=18	=18	=18	=18	=18	=18	=18	=18	=18	=18
!LO:TX:a:i:t=tutti	!	!	!	!LO:DY:a	!	!LO:DY:a:t=for	!LO:TX:a:i:t=preſto	!	!	!LO:TX:a:i:t=preſto	!	!	!LO:TX:a:i:t=preſto	!	!	!LO:TX:a:i:t=preſto	!	!	!	!LO:TX:a:i:t=allo&colon;
8D\L	.	.	16f#'/LL	fz	8dd\L	f	4D\	ſi-	.	4A\	ſi-	.	4f#\	ſi-	.	4dd\	ſi-	.	4.dd\	4.ff#\
.	.	.	16e'/	.	.	.	.	.	.	.	.	.	.	.	.	.	.	.	.	.
8D\	.	.	16f#'/	.	8dd\	.	.	.	.	.	.	.	.	.	.	.	.	.	.	.
.	.	.	16g'/	.	.	.	.	.	.	.	.	.	.	.	.	.	.	.	.	.
8D\J	.	.	16a'/	.	8dd\J	.	8D\	-cut	.	8A\	-cut	.	8f#\	-cut	.	8dd\	-cut	.	.	.
.	.	.	16f#'/JJ	.	.	.	.	.	.	.	.	.	.	.	.	.	.	.	.	.
!	!	!	!LO:LB:g=original	!	!	!	!	!	!	!	!	!	!	!	!	!	!	!	!	!
=19	=19	=19	=19	=19	=19	=19	=19	=19	=19	=19	=19	=19	=19	=19	=19	=19	=19	=19	=19	=19
8E\L	6 3	.	16g'/LL	.	4cc#\	.	4E\	e-	.	4A\	e-	.	4g\	e-	.	4cc#\	e-	.	4.ee\	4.gg\
.	.	.	16a'/	.	.	.	.	.	.	.	.	.	.	.	.	.	.	.	.	.
8E\	.	.	16g'/	.	.	.	.	.	.	.	.	.	.	.	.	.	.	.	.	.
.	.	.	16f#'/	.	.	.	.	.	.	.	.	.	.	.	.	.	.	.	.	.
8E\J	.	.	16e'/	.	32cc#\LLL	.	8E\	-rat	.	8A\	-rat	.	8g\	-rat	.	8cc#\	-rat	.	.	.
.	.	.	.	.	32b\	.	.	.	.	.	.	.	.	.	.	.	.	.	.	.
.	.	.	16f#'/JJ	.	32cc#\	.	.	.	.	.	.	.	.	.	.	.	.	.	.	.
.	.	.	.	.	32dd\JJJ	.	.	.	.	.	.	.	.	.	.	.	.	.	.	.
=20	=20	=20	=20	=20	=20	=20	=20	=20	=20	=20	=20	=20	=20	=20	=20	=20	=20	=20	=20	=20
*tremolo	*	*	*	*	*	*	*	*	*	*	*	*	*	*	*	*	*	*	*	*
8C#/L	6 5	.	16g'/LL	.	8ee\L	.	4C#/	in	.	4A\	in	.	4g\	in	.	4ee\	in	.	4.a/	4.ee\
.	.	.	16f#'/	.	.	.	.	.	.	.	.	.	.	.	.	.	.	.	.	.
8C#/	.	.	16e'/	.	8ee\	.	.	.	.	.	.	.	.	.	.	.	.	.	.	.
.	.	.	16g'/	.	.	.	.	.	.	.	.	.	.	.	.	.	.	.	.	.
8C#/J	.	.	16a'/	.	8ee\J	.	8C#/	prin-	.	8A\	prin-	.	8g\	prin-	.	8ee\	prin-	.	.	.
.	.	.	16g'/JJ	.	.	.	.	.	.	.	.	.	.	.	.	.	.	.	.	.
=21	=21	=21	=21	=21	=21	=21	=21	=21	=21	=21	=21	=21	=21	=21	=21	=21	=21	=21	=21	=21
8D\L	.	.	16f#/LL	.	4dd\	.	8.D\	-ci-	.	8.A\	-ci-	.	8.f#\	-ci-	.	8.dd\	-ci-	.	4.dd\	4.ff#\
.	.	.	16g/	.	.	.	.	.	.	.	.	.	.	.	.	.	.	.	.	.
8D\	.	.	16a/	.	.	.	.	.	.	.	.	.	.	.	.	.	.	.	.	.
.	.	.	16f#/	.	.	.	16D\	-pi-	.	16A\	-pi-	.	16f#\	-pi-	.	16dd\	-pi-	.	.	.
8D\J	.	.	16e/	.	32dd\LLL	.	8D\	-o	.	8A\	-o	.	8f#\	-o	.	8dd\	-o	.	.	.
.	.	.	.	.	32cc#\	.	.	.	.	.	.	.	.	.	.	.	.	.	.	.
.	.	.	16f#/JJ	.	32dd\	.	.	.	.	.	.	.	.	.	.	.	.	.	.	.
.	.	.	.	.	32ee\JJJ	.	.	.	.	.	.	.	.	.	.	.	.	.	.	.
!	!	!	!	!	!	!	!LO:LB:g=original	!	!	!	!	!	!	!	!	!LO:LB:g=original	!	!	!	!
=22	=22	=22	=22	=22	=22	=22	=22	=22	=22	=22	=22	=22	=22	=22	=22	=22	=22	=22	=22	=22
8D\L	.	.	16d/LL	.	8ff#\L	.	8D\	&	.	8d\	&	.	8a\	&	.	8ff#\	&	.	4.d/	4.dd\
.	.	.	16e/	.	.	.	.	.	.	.	.	.	.	.	.	.	.	.	.	.
8D\	.	.	16f#/	.	8dd\	.	8D\	nunc	.	8d\	nunc	.	8a\	nunc	.	8ff#\	nunc	.	.	.
.	.	.	16g/	.	.	.	.	.	.	.	.	.	.	.	.	.	.	.	.	.
8D\J	.	.	16a/	.	8ff#\J	.	8D\	&	.	8d\	&	.	8a\	&	.	8ff#\	&	.	.	.
.	.	.	16f#/JJ	.	.	.	.	.	.	.	.	.	.	.	.	.	.	.	.	.
*Xtremolo	*	*	*	*	*	*	*	*	*	*	*	*	*	*	*	*	*	*	*	*
!	!	!	!	!	!	!	!	!	!	!LO:LB:g=original	!	!	!LO:LB:g=original	!	!	!	!	!	!	!
=23	=23	=23	=23	=23	=23	=23	=23	=23	=23	=23	=23	=23	=23	=23	=23	=23	=23	=23	=23	=23
8D\L	6: 4:	.	16b/LL	.	4gg\	.	4D\	ſem-	.	4d\	ſem-	.	4b\	ſem-	.	4gg\	ſem-	.	4.d/	4.dd\
.	.	.	16a/	.	.	.	.	.	.	.	.	.	.	.	.	.	.	.	.	.
8D\	.	.	16g/	.	.	.	.	.	.	.	.	.	.	.	.	.	.	.	.	.
.	.	.	16b/	.	.	.	.	.	.	.	.	.	.	.	.	.	.	.	.	.
8D\J	5 3	.	16a/	.	8ff#\	.	8D\	-per	.	8d\	-per	.	8a\	-per	.	8ff#\	-per	.	.	.
.	.	.	16f#/JJ	.	.	.	.	.	.	.	.	.	.	.	.	.	.	.	.	.
!	!	!	!LO:LB:g=original	!	!	!	!	!	!	!	!	!	!	!	!	!	!	!	!	!
=24	=24	=24	=24	=24	=24	=24	=24	=24	=24	=24	=24	=24	=24	=24	=24	=24	=24	=24	=24	=24
*	*	*	*	*	*	*	*	*ij	*	*	*	*	*	*	*	*	*ij	*	*	*
8C#/L	6 5	.	16g/LL	.	4ee\	.	8C#/	&	.	8c#\	&	.	8g\	&	.	8ee\	&	.	4a/	4ee\
.	.	.	16f#/	.	.	.	.	.	.	.	.	.	.	.	.	.	.	.	.	.
8AA/	.	.	16e/	.	.	.	8AA/	nunc	.	8c#\	nunc	.	8g\	nunc	.	8ee\	nunc	.	.	.
.	.	.	16g/	.	.	.	.	.	.	.	.	.	.	.	.	.	.	.	.	.
8D/J	.	.	16f#/	.	8dd\	.	8D\	&	.	8A\	&	.	8f#\	&	.	8dd\	&	.	8dd\	8ff#\
.	.	.	16a/JJ	.	.	.	.	.	.	.	.	.	.	.	.	.	.	.	.	.
!	!	!	!	!	!LO:LB:g=original	!	!	!	!	!	!	!	!	!	!	!	!	!	!	!
=25	=25	=25	=25	=25	=25	=25	=25	=25	=25	=25	=25	=25	=25	=25	=25	=25	=25	=25	=25	=25
!LO:TX:t=P:problem=mixed beam	!	!	!	!	!	!	!LO:TX:t=P:problem=mixed beam	!	!	!	!	!	!	!	!	!	!	!	!LO:TX:t=P:problem=mixed beam	!
8G\L	6	.	8g/L	.	8ee\L	.	8G\L	ſem-	.	8B\	ſem-	.	8g\L	ſem-	.	8ee\L	ſem-	.	8ee\L	8gg\L
8A\	4	.	8f#/	.	8dd\	.	8A\	.	.	4A\	.	.	8f#\	.	.	8dd\	.	.	8dd\	8ff#\
8AA/J	3	.	8e/J	.	8cc#\J	.	8AA/J	.	.	.	.	.	8e\J	.	.	8cc#\J	.	.	8a/J	8ee\J
!LO:LB:g=original	!	!	!	!	!	!	!	!	!	!	!	!	!	!	!	!	!	!	!	!
=26	=26	=26	=26	=26	=26	=26	=26	=26	=26	=26	=26	=26	=26	=26	=26	=26	=26	=26	=26	=26
*	*	*	*^	*	*	*	*	*	*	*	*	*	*	*	*	*	*	*	*	*
*	*	*	*tremolo	*	*	*	*	*	*	*	*	*	*	*	*	*	*	*	*	*	*
8D\L	.	.	16a/LL	16f#\LL	.	4dd\	.	8D\	-per	.	8A\	-per	.	8f#\	-per	.	8dd\	-per	.	4.f#/	4.dd\
*	*	*	*	*	*	*	*	*	*Xij	*	*	*	*	*	*	*	*	*Xij	*	*	*
.	.	.	16a/	16f#\	.	.	.	.	.	.	.	.	.	.	.	.	.	.	.	.	.
8D\	.	.	16a/	16f#\	.	.	.	8D\	&	.	8d\	&	.	8a\	&	.	8ff#\	&	.	.	.
.	.	.	16a/	16f#\	.	.	.	.	.	.	.	.	.	.	.	.	.	.	.	.	.
8D\J	.	.	16a/	16f#\	.	32ff#\LLL	.	8D\	in	.	8d\	in	.	8a\	in	.	8ff#\	in	.	.	.
.	.	.	.	.	.	32ee\	.	.	.	.	.	.	.	.	.	.	.	.	.	.	.
.	.	.	16a/JJ	16f#\JJ	.	32ff#\	.	.	.	.	.	.	.	.	.	.	.	.	.	.	.
.	.	.	.	.	.	32gg\JJJ	.	.	.	.	.	.	.	.	.	.	.	.	.	.	.
!	!	!	!	!	!	!	!	!LO:LB:g=original	!	!	!	!	!	!	!	!	!LO:LB:g=original	!	!	!	!
=27	=27	=27	=27	=27	=27	=27	=27	=27	=27	=27	=27	=27	=27	=27	=27	=27	=27	=27	=27	=27	=27
*tremolo	*	*	*	*	*	*	*	*	*	*	*	*	*	*	*	*	*	*	*	*	*
8D\L	.	.	16a/LL	16f#\LL	.	8ff#\L	.	8.D\	ſae-	.	8.d\	ſae-	.	8.a\	ſae-	.	8.ff#\	ſae-	.	4.f#/	4.dd\
.	.	.	16a/	16f#\	.	.	.	.	.	.	.	.	.	.	.	.	.	.	.	.	.
8D\	.	.	16a/	16f#\	.	8aa\	.	.	.	.	.	.	.	.	.	.	.	.	.	.	.
.	.	.	16a/	16f#\	.	.	.	16D\	-cu-	.	16d\	-cu-	.	16a\	-cu-	.	16ff#\	-cu-	.	.	.
!	!	!	!	!	!	!	!	!	!	!	!LO:TX:b:i:t=Verte	!	!	!	!	!	!	!	!	!	!
8D\J	.	.	16a/	16f#\	.	8ff#\J	.	8D\	-la	.	8d\	-la	.	8a\	-la	.	8ff#\	-la	.	.	.
.	.	.	16a/JJ	16f#\JJ	.	.	.	.	.	.	.	.	.	.	.	.	.	.	.	.	.
!	!	!	!	!	!	!	!	!	!	!	!LO:PB:g=original	!	!	!	!	!	!	!	!	!	!LO:LB:g=original
=28	=28	=28	=28	=28	=28	=28	=28	=28	=28	=28	=28	=28	=28	=28	=28	=28	=28	=28	=28	=28	=28
8C#/L	6	.	16a/LL	16e\LL	.	4ee\	.	4C#/	ſae-	.	4e\	ſae-	.	4a\	&	.	4ee\	ſae-	.	4.a/	4.ee\
.	.	.	16a/	16e\	.	.	.	.	.	.	.	.	.	.	.	.	.	.	.	.	.
8C#/	.	.	16a/	16e\	.	.	.	.	.	.	.	.	.	.	.	.	.	.	.	.	.
.	.	.	16a/	16e\	.	.	.	.	.	.	.	.	.	.	.	.	.	.	.	.	.
8C#/J	.	.	16a/	16e\	.	32ee\LLL	.	8C#/	-cu-	.	8e\	-cu-	.	8a\	in-	.	8ee\	-cu-	.	.	.
.	.	.	.	.	.	32dd\	.	.	.	.	.	.	.	.	.	.	.	.	.	.	.
.	.	.	16a/JJ	16e\JJ	.	32ee\	.	.	.	.	.	.	.	.	.	.	.	.	.	.	.
.	.	.	.	.	.	32ff#\JJJ	.	.	.	.	.	.	.	.	.	.	.	.	.	.	.
!	!	!	!	!	!	!	!	!	!	!	!	!	!	!LO:LB:g=original	!	!	!	!	!	!	!
=29	=29	=29	=29	=29	=29	=29	=29	=29	=29	=29	=29	=29	=29	=29	=29	=29	=29	=29	=29	=29	=29
*	*	*	*	*tremolo	*	*	*	*	*	*	*	*	*	*	*	*	*	*	*	*	*
8C#/L	.	.	16a/LL	16e\LL	.	8ee\L	.	4C#/	-lo-	.	4e\	-lo-	.	8.a\	ſae-	.	4ee\	-lo-	.	4.a/	4.ee\
.	.	.	16a/	16e\	.	.	.	.	.	.	.	.	.	.	.	.	.	.	.	.	.
8C#/	.	.	16a/	16e\	.	8aa\	.	.	.	.	.	.	.	.	.	.	.	.	.	.	.
.	.	.	16a/	16e\	.	.	.	.	.	.	.	.	.	16a\	-cu-	.	.	.	.	.	.
8C#/J	.	.	16a/	16e\	.	8ee\J	.	8C#/	-rum	.	8e\	-rum	.	8a\	-la	.	8ee\	-rum	.	.	.
.	.	.	16a/JJ	16e\JJ	.	.	.	.	.	.	.	.	.	.	.	.	.	.	.	.	.
*	*	*	*Xtremolo	*Xtremolo	*	*	*	*	*	*	*	*	*	*	*	*	*	*	*	*	*
*	*	*	*v	*v	*	*	*	*	*	*	*	*	*	*	*	*	*	*	*	*	*
=30	=30	=30	=30	=30	=30	=30	=30	=30	=30	=30	=30	=30	=30	=30	=30	=30	=30	=30	=30	=30
*	*	*	*	*	*	*	*	*	*	*	*	*	*	*ij	*	*	*	*	*	*
8G#X\L	6 5	.	8b\L	.	16ee\LL	.	4G#X\	&	.	4e\	&	.	4b\	&	.	4dd\	&	.	4.ee\	4.ee\
.	.	.	.	.	16dd\	.	.	.	.	.	.	.	.	.	.	.	.	.	.	.
8G#X\	.	.	8b\	.	16bb\	.	.	.	.	.	.	.	.	.	.	.	.	.	.	.
.	.	.	.	.	16gg#X\	.	.	.	.	.	.	.	.	.	.	.	.	.	.	.
8G#X\J	.	.	8b\J	.	16ee\	.	8G#\	in	.	8e\	in	.	8b\	in	.	8dd\	in	.	.	.
.	.	.	.	.	16dd\JJ	.	.	.	.	.	.	.	.	.	.	.	.	.	.	.
=31	=31	=31	=31	=31	=31	=31	=31	=31	=31	=31	=31	=31	=31	=31	=31	=31	=31	=31	=31	=31
8A\L	.	.	8e/L	.	16dd\LL	.	8A\	ſae-	.	8e\	ſae-	.	8a\	ſae-	.	8cc#\	ſae-	.	4a/	4ee\
.	.	.	.	.	16cc#\	.	.	.	.	.	.	.	.	.	.	.	.	.	.	.
8A\	.	.	8e/	.	16aa\	.	8A\	-cu-	.	8e\	-cu-	.	8a\	-cu-	.	8cc#\	-cu-	.	.	.
.	.	.	.	.	16ee\	.	.	.	.	.	.	.	.	.	.	.	.	.	.	.
8A\J	.	.	8e/J	.	16dd\	.	8A\	-la	.	8e\	-la	.	8a\	-la	.	8cc#\	-la	.	8r	8r
*	*	*	*	*	*	*	*	*	*	*	*	*	*	*Xij	*	*	*	*	*	*
.	.	.	.	.	16cc#\JJ	.	.	.	.	.	.	.	.	.	.	.	.	.	.	.
*Xtremolo	*	*	*	*	*	*	*	*	*	*	*	*	*	*	*	*	*	*	*	*
!	!	!	!LO:LB:g=original	!	!LO:LB:g=original	!	!LO:LB:g=original	!	!	!	!	!	!	!	!	!LO:LB:g=original	!	!	!LO:LB:g=original	!
=32	=32	=32	=32	=32	=32	=32	=32	=32	=32	=32	=32	=32	=32	=32	=32	=32	=32	=32	=32	=32
!	!	!	!	!	!	!	!	!	!	!	!	!	!	!	!	!	!	!	!LO:TX:a:t=2	!
8D\L	6:	.	8f#/L	.	16b\LL	.	16D\	ſae-	.	16f#\	ſae-	.	16b\	ſae-	.	16dd\	ſae-	.	2.r	2.r
.	.	.	.	.	16cc#\	.	16D\	-cu-	.	16f#\	-cu-	.	16b\	-cu-	.	16dd\	-cu-	.	.	.
8D\	.	.	8f#/	.	16dd\	.	8D\	-lo-	.	8f#\	-lo-	.	8b\	-lo-	.	8dd\	-lo-	.	.	.
.	.	.	.	.	16b\	.	.	.	.	.	.	.	.	.	.	.	.	.	.	.
8D#X\J	5	.	8f#/J	.	16cc#\	.	8D#X\	-rum	.	8f#\	-rum	.	8a\	-rum	.	8cc#\	-rum	.	.	.
.	.	.	.	.	16a\JJ	.	.	.	.	.	.	.	.	.	.	.	.	.	.	.
=33	=33	=33	=33	=33	=33	=33	=33	=33	=33	=33	=33	=33	=33	=33	=33	=33	=33	=33	=33	=33
!LO:TX:t=P:problem=mixed beam	!	!	!	!	!	!	!	!	!	!	!	!	!	!	!	!	!	!	!	!
8E\L	4	.	8c#/L	.	8a/L	.	8E\	a-	.	8e\	a-	.	8a\	a-	.	8cc#\	a-	.	.	.
8EE/J	#	.	8B/	.	8g#X/	.	8E\	-men	.	8e\	-men	.	8g#X\	-men	.	8b\	-men	.	.	.
8r	.	.	8e/J	.	8e/J	.	8r	.	.	8r	.	.	8r	.	.	8r	.	.	.	.
!LO:LB:g=original	!	!	!	!	!	!	!	!	!	!LO:LB:g=original	!	!	!LO:LB:g=original	!	!	!	!	!	!	!
=34	=34	=34	=34	=34	=34	=34	=34	=34	=34	=34	=34	=34	=34	=34	=34	=34	=34	=34	=34	=34
8G#X\L	6 5	.	16e/LL	.	8dd\L	.	4G#X\	&	.	4B\	&	.	4e\	&	.	4dd\	&	.	4.ee\	4.ee\
.	.	.	16e/	.	.	.	.	.	.	.	.	.	.	.	.	.	.	.	.	.
8G#\	.	.	16e/	.	8dd\	.	.	.	.	.	.	.	.	.	.	.	.	.	.	.
.	.	.	16e/	.	.	.	.	.	.	.	.	.	.	.	.	.	.	.	.	.
8G#\J	.	.	16e/	.	8dd\J	.	8G#\	in	.	8B\	in	.	8e\	in	.	8dd\	in	.	.	.
.	.	.	16e/JJ	.	.	.	.	.	.	.	.	.	.	.	.	.	.	.	.	.
=35	=35	=35	=35	=35	=35	=35	=35	=35	=35	=35	=35	=35	=35	=35	=35	=35	=35	=35	=35	=35
*	*	*	*tremolo	*	*	*	*	*	*	*	*	*	*	*	*	*	*	*	*	*
4A\	.	.	16e/LL	.	8cc#\L	.	8A\	ſae-	.	8c#\	ſae-	.	8e\	ſae-	.	8cc#\	ſae-	.	4.a/	4.ee\
.	.	.	16e/	.	.	.	.	.	.	.	.	.	.	.	.	.	.	.	.	.
.	.	.	16e/	.	16ee\L	.	8A\	-cu-	.	8c#\	-cu-	.	8e\	-cu-	.	8cc#\	-cu-	.	.	.
.	.	.	16e/	.	16cc#\	.	.	.	.	.	.	.	.	.	.	.	.	.	.	.
16B\LL	.	.	16e/	.	16b\	.	16B\LL	-la	.	8c#\	-la	.	8e\	-la	.	8a\	-la	.	.	.
16c#\JJ	6	.	16e/JJ	.	16a\JJ	.	16c#\JJ	.	.	.	.	.	.	.	.	.	.	.	.	.
!	!	!	!	!	!	!	!	!	!	!	!	!	!	!	!	!LO:LB:g=original	!	!	!	!
=36	=36	=36	=36	=36	=36	=36	=36	=36	=36	=36	=36	=36	=36	=36	=36	=36	=36	=36	=36	=36
8d\L	4#r_ 2_	.	16e/LL	.	8g#X/L	.	4d\	ſae-	.	4B\	ſae-	.	4e\	ſae-	.	4g#X\	ſae-	.	4.ee\	4.ee\
.	.	.	16e/	.	.	.	.	.	.	.	.	.	.	.	.	.	.	.	.	.
8d\	x x	.	16e/	.	8g#/	.	.	.	.	.	.	.	.	.	.	.	.	.	.	.
.	.	.	16e/	.	.	.	.	.	.	.	.	.	.	.	.	.	.	.	.	.
8d\J	.	.	16e/	.	8g#/J	.	8d\	-cu-	.	8B\	-cu-	.	8e\	-cu-	.	8g#\	-cu-	.	.	.
.	.	.	16e/JJ	.	.	.	.	.	.	.	.	.	.	.	.	.	.	.	.	.
!	!	!	!	!	!	!	!LO:LB:g=original	!	!	!	!	!	!	!	!	!	!	!	!	!
=37	=37	=37	=37	=37	=37	=37	=37	=37	=37	=37	=37	=37	=37	=37	=37	=37	=37	=37	=37	=37
4c#\	6	.	16e/LL	.	8a/L	.	4c#\	-lo-	.	4A\	-lo-	.	4e\	-lo-	.	4a\	-lo-	.	4.a/	4.ee\
.	.	.	16e/	.	.	.	.	.	.	.	.	.	.	.	.	.	.	.	.	.
!	!	!	!	!	!LO:SIC:v:s=16g#/L	!	!	!	!	!	!	!	!	!	!	!	!	!	!	!
.	.	.	16e/	.	16g/L	.	.	.	.	.	.	.	.	.	.	.	.	.	.	.
.	.	.	16e/	.	16a/	.	.	.	.	.	.	.	.	.	.	.	.	.	.	.
16B\LL	.	.	16e/	.	16b/	.	16B\LL	-rum	.	8A\	-rum	.	8e\	-rum	.	8cc#\	-rum	.	.	.
16A\JJ	.	.	16e/JJ	.	16cc#/JJ	.	16A\JJ	.	.	.	.	.	.	.	.	.	.	.	.	.
=38	=38	=38	=38	=38	=38	=38	=38	=38	=38	=38	=38	=38	=38	=38	=38	=38	=38	=38	=38	=38
8G#X\L	6_ 5_	.	16e/LL	.	8dd\L	.	4G#X\	&	.	4B\	&	.	4e\	&	.	4dd\	&	.	4.ee\	4.ee\
.	.	.	16e/	.	.	.	.	.	.	.	.	.	.	.	.	.	.	.	.	.
8G#\	.	.	16e/	.	8dd\	.	.	.	.	.	.	.	.	.	.	.	.	.	.	.
.	.	.	16e/	.	.	.	.	.	.	.	.	.	.	.	.	.	.	.	.	.
8G#\J	x x	.	16e/	.	8dd\J	.	8G#\	in	.	8B\	in	.	8e\	in	.	8dd\	in	.	.	.
.	.	.	16e/JJ	.	.	.	.	.	.	.	.	.	.	.	.	.	.	.	.	.
!	!	!	!	!	!LO:LB:g=original	!	!	!	!	!	!	!	!	!	!	!	!	!	!	!
=39	=39	=39	=39	=39	=39	=39	=39	=39	=39	=39	=39	=39	=39	=39	=39	=39	=39	=39	=39	=39
4G\	.	.	16e/LL	.	8cc#\L	.	8A\	ſae-	.	8c#\	ſae-	.	8e\	ſae-	.	8cc#\	ſae-	.	4.a/	4.ee\
.	.	.	16e/	.	.	.	.	.	.	.	.	.	.	.	.	.	.	.	.	.
.	.	.	16e/	.	16ee\L	.	8A\	-cu-	.	8c#\	-cu-	.	8e\	-cu-	.	8cc#\	-cu-	.	.	.
.	.	.	16e/	.	16cc#\	.	.	.	.	.	.	.	.	.	.	.	.	.	.	.
16B\LL	.	.	16e/	.	16b\	.	16B\LL	-la	.	8c#\	-la	.	8e\	-la	.	8a\	-la	.	.	.
16c#\JJ	6	.	16e/JJ	.	16a\JJ	.	16c#\JJ	.	.	.	.	.	.	.	.	.	.	.	.	.
!	!	!	!	!	!	!	!	!	!	!	!	!	!LO:LB:g=original	!	!	!	!	!	!	!
=40	=40	=40	=40	=40	=40	=40	=40	=40	=40	=40	=40	=40	=40	=40	=40	=40	=40	=40	=40	=40
8d\L	4#r_ 2_	.	16e/LL	.	8g#X/L	.	4d\	ſae-	.	4B\	ſae-	.	4e\	ſae-	.	4g#X\	ſae-	.	4.ee\	4.ee\
.	.	.	16e/	.	.	.	.	.	.	.	.	.	.	.	.	.	.	.	.	.
8d\	.	.	16e/	.	8g#/	.	.	.	.	.	.	.	.	.	.	.	.	.	.	.
.	.	.	16e/	.	.	.	.	.	.	.	.	.	.	.	.	.	.	.	.	.
8d\J	x x	.	16e/	.	8g#/J	.	8d\	-cu-	.	8B\	-cu-	.	8e\	-cu-	.	8g#\	-cu-	.	.	.
.	.	.	16e/JJ	.	.	.	.	.	.	.	.	.	.	.	.	.	.	.	.	.
!LO:LB:g=original	!	!	!LO:LB:g=original	!	!	!	!	!	!	!LO:LB:g=original	!	!	!	!	!	!LO:LB:g=original	!	!	!	!
=41	=41	=41	=41	=41	=41	=41	=41	=41	=41	=41	=41	=41	=41	=41	=41	=41	=41	=41	=41	=41
4c#\	6	.	16e/LL	.	8a/L	.	4c#\	-lo-	.	4A\	-lo-	.	4e\	-lo-	.	4a\	-lo-	.	4.a/	4.ee\
.	.	.	16e/	.	.	.	.	.	.	.	.	.	.	.	.	.	.	.	.	.
!	!	!	!	!	!LO:SIC:v:s=16g#/L	!	!	!	!	!	!	!	!	!	!	!	!	!	!	!
.	.	.	16e/	.	16g/L	.	.	.	.	.	.	.	.	.	.	.	.	.	.	.
.	.	.	16e/	.	16a/	.	.	.	.	.	.	.	.	.	.	.	.	.	.	.
16B\LL	.	.	16e/	.	16b/	.	16B\LL	-rum	.	8A\	-rum	.	8e\	-rum	.	8cc#\	-rum	.	.	.
16A\JJ	.	.	16e/JJ	.	16cc#/JJ	.	16A\JJ	.	.	.	.	.	.	.	.	.	.	.	.	.
!	!	!	!	!	!	!	!	!	!	!	!	!	!	!	!	!	!	!	!	!LO:LB:g=original
=42	=42	=42	=42	=42	=42	=42	=42	=42	=42	=42	=42	=42	=42	=42	=42	=42	=42	=42	=42	=42
8G#X\L	6 5	.	16e/LL	.	4dd\	.	8G#X\L	a-	.	4.B\	a-	.	4.e\	a-	.	4.dd\	a-	.	4.ee\	4.ee\
.	.	.	16e/	.	.	.	.	.	.	.	.	.	.	.	.	.	.	.	.	.
8E\	.	.	16e/	.	.	.	8E\	.	.	.	.	.	.	.	.	.	.	.	.	.
.	.	.	16e/	.	.	.	.	.	.	.	.	.	.	.	.	.	.	.	.	.
8G#\J	.	.	16e/	.	16b\LL	.	8G#\J	.	.	.	.	.	.	.	.	.	.	.	.	.
.	.	.	16e/JJ	.	16dd\JJ	.	.	.	.	.	.	.	.	.	.	.	.	.	.	.
!	!	!	!	!	!	!	!LO:LB:g=original	!	!	!	!	!	!	!	!	!	!	!	!	!
=43	=43	=43	=43	=43	=43	=43	=43	=43	=43	=43	=43	=43	=43	=43	=43	=43	=43	=43	=43	=43
8A\L	.	.	16e/LL	.	8cc#\L	.	8A\L	.	.	4.A\	.	.	4.e\	.	.	4.cc#\	.	.	4.a/	4.ee\
.	.	.	16e/	.	.	.	.	.	.	.	.	.	.	.	.	.	.	.	.	.
8c#\	.	.	16e/	.	8a\	.	8c#\	.	.	.	.	.	.	.	.	.	.	.	.	.
.	.	.	16e/	.	.	.	.	.	.	.	.	.	.	.	.	.	.	.	.	.
!	!	!	!	!	!LO:TX:b:i:t=Verte	!	!	!	!	!	!	!	!	!	!	!	!	!	!	!
8A\J	.	.	16e/	.	8cc#\J	.	8A\J	.	.	.	.	.	.	.	.	.	.	.	.	.
.	.	.	16e/JJ	.	.	.	.	.	.	.	.	.	.	.	.	.	.	.	.	.
!	!	!	!	!	!LO:PB:g=original	!	!	!	!	!	!	!	!	!	!	!	!	!	!	!
=44	=44	=44	=44	=44	=44	=44	=44	=44	=44	=44	=44	=44	=44	=44	=44	=44	=44	=44	=44	=44
8G#X\L	6 5	.	16e/LL	.	4dd\	.	8G#X\L	.	.	4.B\	.	.	4.e\	.	.	4.dd\	.	.	4.ee\	4.ee\
.	.	.	16e/	.	.	.	.	.	.	.	.	.	.	.	.	.	.	.	.	.
8E\	.	.	16e/	.	.	.	8E\	.	.	.	.	.	.	.	.	.	.	.	.	.
.	.	.	16e/	.	.	.	.	.	.	.	.	.	.	.	.	.	.	.	.	.
8G#\J	.	.	16e/	.	16b\LL	.	8G#\J	.	.	.	.	.	.	.	.	.	.	.	.	.
.	.	.	16e/JJ	.	16dd\JJ	.	.	.	.	.	.	.	.	.	.	.	.	.	.	.
=45	=45	=45	=45	=45	=45	=45	=45	=45	=45	=45	=45	=45	=45	=45	=45	=45	=45	=45	=45	=45
8A\L	.	.	16e/LL	.	8cc#\L	.	8A\L	.	.	4.A\	.	.	4.e\	.	.	4.cc#\	.	.	4.a/	4.ee\
.	.	.	16e/	.	.	.	.	.	.	.	.	.	.	.	.	.	.	.	.	.
8c#\	.	.	16e/	.	8a\	.	8c#\	.	.	.	.	.	.	.	.	.	.	.	.	.
.	.	.	16e/	.	.	.	.	.	.	.	.	.	.	.	.	.	.	.	.	.
8A\J	.	.	16e/	.	8cc#\J	.	8A\J	.	.	.	.	.	.	.	.	.	.	.	.	.
.	.	.	16e/JJ	.	.	.	.	.	.	.	.	.	.	.	.	.	.	.	.	.
=46	=46	=46	=46	=46	=46	=46	=46	=46	=46	=46	=46	=46	=46	=46	=46	=46	=46	=46	=46	=46
8G#X\L	6 5	.	16e/LL	.	8dd\L	.	4.G#X\	.	.	4.B\	.	.	4.e\	.	.	4.dd\	.	.	4.ee\	4.ee\
.	.	.	16e/	.	.	.	.	.	.	.	.	.	.	.	.	.	.	.	.	.
8G#\	_ _	.	16e/	.	16cc#\L	.	.	.	.	.	.	.	.	.	.	.	.	.	.	.
.	.	.	16e/	.	16dd\	.	.	.	.	.	.	.	.	.	.	.	.	.	.	.
8G#\J	x x	.	16e/	.	16ee\	.	.	.	.	.	.	.	.	.	.	.	.	.	.	.
.	.	.	16e/JJ	.	16dd\JJ	.	.	.	.	.	.	.	.	.	.	.	.	.	.	.
=47	=47	=47	=47	=47	=47	=47	=47	=47	=47	=47	=47	=47	=47	=47	=47	=47	=47	=47	=47	=47
8A\L	.	.	16e/LL	.	8cc#\L	.	4.A\	.	.	4.A\	.	.	4.e\	.	.	4.cc#\	.	.	4.a/	4.ee\
.	.	.	16e/	.	.	.	.	.	.	.	.	.	.	.	.	.	.	.	.	.
8A\	.	.	16e/	.	8ee\	.	.	.	.	.	.	.	.	.	.	.	.	.	.	.
.	.	.	16e/	.	.	.	.	.	.	.	.	.	.	.	.	.	.	.	.	.
8A\J	.	.	16e/	.	8aa\J	.	.	.	.	.	.	.	.	.	.	.	.	.	.	.
.	.	.	16e/JJ	.	.	.	.	.	.	.	.	.	.	.	.	.	.	.	.	.
*	*	*	*Xtremolo	*	*	*	*	*	*	*	*	*	*	*	*	*	*	*	*	*
!LO:LB:g=original	!	!	!	!	!	!	!	!	!	!	!	!	!LO:LB:g=original	!	!	!	!	!	!	!
=48	=48	=48	=48	=48	=48	=48	=48	=48	=48	=48	=48	=48	=48	=48	=48	=48	=48	=48	=48	=48
!LO:TX:t=P:problem=mixed beam	!	!	!	!	!	!	!	!	!	!	!	!	!	!	!	!	!	!	!	!
8D\L	6	.	8b/L	.	16gg\LL	.	8d\L	.	.	8f#\	.	.	8d\L	.	.	8b\L	.	.	8dd\L	8ff#\L
.	.	.	.	.	16dd\JJ	.	.	.	.	.	.	.	.	.	.	.	.	.	.	.
8E\	4	.	8a/	.	8cc#\L	.	8e\	.	.	4e\	.	.	8c#\	.	.	8a\	.	.	8ee\	8ee\
8EE/J	#	.	8g#X/J	.	8b\J	.	8E\J	.	.	.	.	.	8B\J	.	.	8g#X\J	.	.	8ee\J	8ee\J
!	!	!	!	!	!	!	!	!	!	!	!	!	!	!	!	!LO:LB:g=original	!	!	!	!
=49	=49	=49	=49	=49	=49	=49	=49	=49	=49	=49	=49	=49	=49	=49	=49	=49	=49	=49	=49	=49
!	!	!	!LO:TX:a:i:t=Solo	!	!LO:TX:a:i:t=Solo&colon;	!	!	!	!	!	!	!	!	!	!	!	!	!	!	!
4AA/	.	.	16a'/LL	.	8cc#\L	.	4A\	-men	.	4e\	-men	.	4c#\	-men	.	4a\	-men	.	4a/	4ee\
.	.	.	16g'/	.	.	.	.	.	.	.	.	.	.	.	.	.	.	.	.	.
.	.	.	16a'/	.	8aa\	.	.	.	.	.	.	.	.	.	.	.	.	.	.	.
.	.	.	16b'/	.	.	.	.	.	.	.	.	.	.	.	.	.	.	.	.	.
!	!	!LO:DY:a:t=pio&colon;	!	!	!	!	!	!	!	!	!	!	!	!	!	!	!	!	!	!
8r	.	p	16cc#'/	.	8ee\J	.	8r	.	.	8r	.	.	8r	.	.	8r	.	.	8r	8r
.	.	.	16a'/JJ	.	.	.	.	.	.	.	.	.	.	.	.	.	.	.	.	.
!	!	!	!LO:LB:g=original	!	!	!	!LO:LB:g=original	!	!	!	!	!	!	!	!	!	!	!	!	!
=50	=50	=50	=50	=50	=50	=50	=50	=50	=50	=50	=50	=50	=50	=50	=50	=50	=50	=50	=50	=50
!	!	!	!	!	!	!	!	!	!	!	!	!	!	!	!	!	!	!	!LO:TX:a:t=19.	!
4E\	#	.	16g#X'/LL	.	4ee\	.	1.r	.	.	1.r	.	.	1.r	.	.	1.r	.	.	1.r	1.r
.	.	.	16f#'/	.	.	.	.	.	.	.	.	.	.	.	.	.	.	.	.	.
.	.	.	16g#'/	.	.	.	.	.	.	.	.	.	.	.	.	.	.	.	.	.
.	.	.	16a'/	.	.	.	.	.	.	.	.	.	.	.	.	.	.	.	.	.
8r	.	.	16b'/	.	8dd\	.	.	.	.	.	.	.	.	.	.	.	.	.	.	.
.	.	.	16g#'/JJ	.	.	.	.	.	.	.	.	.	.	.	.	.	.	.	.	.
!	!	!	!	!	!LO:LB:g=original	!	!	!	!	!	!	!	!	!	!	!	!	!	!	!
=51	=51	=51	=51	=51	=51	=51	=51	=51	=51	=51	=51	=51	=51	=51	=51	=51	=51	=51	=51	=51
4G#X\	6 5	.	16e'/LL	.	8bb\L	.	.	.	.	.	.	.	.	.	.	.	.	.	.	.
.	.	.	16f#'/	.	.	.	.	.	.	.	.	.	.	.	.	.	.	.	.	.
.	.	.	16g#X'/	.	8gg#X\	.	.	.	.	.	.	.	.	.	.	.	.	.	.	.
.	.	.	16e'/	.	.	.	.	.	.	.	.	.	.	.	.	.	.	.	.	.
8r	.	.	16f#'/	.	8ff#\J	.	.	.	.	.	.	.	.	.	.	.	.	.	.	.
.	.	.	16g#'/JJ	.	.	.	.	.	.	.	.	.	.	.	.	.	.	.	.	.
=52	=52	=52	=52	=52	=52	=52	=52	=52	=52	=52	=52	=52	=52	=52	=52	=52	=52	=52	=52	=52
4A\	.	.	16a'/LL	.	4dd\	.	.	.	.	.	.	.	.	.	.	.	.	.	.	.
.	.	.	16g#X'/	.	.	.	.	.	.	.	.	.	.	.	.	.	.	.	.	.
.	.	.	16a'/	.	.	.	.	.	.	.	.	.	.	.	.	.	.	.	.	.
.	.	.	16e'/	.	.	.	.	.	.	.	.	.	.	.	.	.	.	.	.	.
8r	.	.	16c#'/	.	8cc#\	.	.	.	.	.	.	.	.	.	.	.	.	.	.	.
.	.	.	16e'/JJ	.	.	.	.	.	.	.	.	.	.	.	.	.	.	.	.	.
=53	=53	=53	=53	=53	=53	=53	=53	=53	=53	=53	=53	=53	=53	=53	=53	=53	=53	=53	=53	=53
4AA/	.	.	16a/LL	.	8cc#\L	.	.	.	.	.	.	.	.	.	.	.	.	.	.	.
.	.	.	16g#X/	.	.	.	.	.	.	.	.	.	.	.	.	.	.	.	.	.
.	.	.	16a/	.	8aa\	.	.	.	.	.	.	.	.	.	.	.	.	.	.	.
.	.	.	16b/	.	.	.	.	.	.	.	.	.	.	.	.	.	.	.	.	.
8r	.	.	16cc#/	.	8ee\J	.	.	.	.	.	.	.	.	.	.	.	.	.	.	.
.	.	.	16a/JJ	.	.	.	.	.	.	.	.	.	.	.	.	.	.	.	.	.
=54	=54	=54	=54	=54	=54	=54	=54	=54	=54	=54	=54	=54	=54	=54	=54	=54	=54	=54	=54	=54
4D\	#	.	16g#X/LL	.	4ee\	.	1.r	.	.	1.r	.	.	1.r	.	.	1.r	.	.	1.r	1.r
.	.	.	16f#/	.	.	.	.	.	.	.	.	.	.	.	.	.	.	.	.	.
.	.	.	16g#/	.	.	.	.	.	.	.	.	.	.	.	.	.	.	.	.	.
.	.	.	16a/	.	.	.	.	.	.	.	.	.	.	.	.	.	.	.	.	.
8r	.	.	16b/	.	8dd\	.	.	.	.	.	.	.	.	.	.	.	.	.	.	.
.	.	.	16g#/JJ	.	.	.	.	.	.	.	.	.	.	.	.	.	.	.	.	.
!	!	!	!LO:LB:g=original	!	!	!	!	!	!	!	!	!	!	!	!	!	!	!	!	!
=55	=55	=55	=55	=55	=55	=55	=55	=55	=55	=55	=55	=55	=55	=55	=55	=55	=55	=55	=55	=55
4G#X\	6 5	.	16e'/LL	.	8bb\L	.	.	.	.	.	.	.	.	.	.	.	.	.	.	.
.	.	.	16f#'/	.	.	.	.	.	.	.	.	.	.	.	.	.	.	.	.	.
.	.	.	16g#X'/	.	8gg#X\	.	.	.	.	.	.	.	.	.	.	.	.	.	.	.
.	.	.	16e'/	.	.	.	.	.	.	.	.	.	.	.	.	.	.	.	.	.
8r	.	.	16f#'/	.	8dd\J	.	.	.	.	.	.	.	.	.	.	.	.	.	.	.
.	.	.	16g#'/JJ	.	.	.	.	.	.	.	.	.	.	.	.	.	.	.	.	.
=56	=56	=56	=56	=56	=56	=56	=56	=56	=56	=56	=56	=56	=56	=56	=56	=56	=56	=56	=56	=56
4A\	.	.	16a/LL	.	4dd\	.	.	.	.	.	.	.	.	.	.	.	.	.	.	.
!	!	!	!LO:SIC:v:s=16g#/	!	!	!	!	!	!	!	!	!	!	!	!	!	!	!	!	!
.	.	.	16g/	.	.	.	.	.	.	.	.	.	.	.	.	.	.	.	.	.
.	.	.	16a/	.	.	.	.	.	.	.	.	.	.	.	.	.	.	.	.	.
.	.	.	16e/	.	.	.	.	.	.	.	.	.	.	.	.	.	.	.	.	.
8r	.	.	16c#/	.	8cc#\	.	.	.	.	.	.	.	.	.	.	.	.	.	.	.
.	.	.	16e/JJ	.	.	.	.	.	.	.	.	.	.	.	.	.	.	.	.	.
!LO:LB:g=original	!	!	!	!	!	!	!	!	!	!	!	!	!	!	!	!	!	!	!	!
=57	=57	=57	=57	=57	=57	=57	=57	=57	=57	=57	=57	=57	=57	=57	=57	=57	=57	=57	=57	=57
4A\	.	.	16A/LL	.	4cc#\	.	.	.	.	.	.	.	.	.	.	.	.	.	.	.
.	.	.	16B/	.	.	.	.	.	.	.	.	.	.	.	.	.	.	.	.	.
.	.	.	16c#/	.	.	.	.	.	.	.	.	.	.	.	.	.	.	.	.	.
.	.	.	16A/	.	.	.	.	.	.	.	.	.	.	.	.	.	.	.	.	.
8r	.	.	16B/	.	8dd\	.	.	.	.	.	.	.	.	.	.	.	.	.	.	.
.	.	.	16d/JJ	.	.	.	.	.	.	.	.	.	.	.	.	.	.	.	.	.
=58	=58	=58	=58	=58	=58	=58	=58	=58	=58	=58	=58	=58	=58	=58	=58	=58	=58	=58	=58	=58
4A\	.	.	16c#/LL	.	4ee\	.	1.r	.	.	1.r	.	.	1.r	.	.	1.r	.	.	1.r	1.r
.	.	.	16B/	.	.	.	.	.	.	.	.	.	.	.	.	.	.	.	.	.
.	.	.	16c#/	.	.	.	.	.	.	.	.	.	.	.	.	.	.	.	.	.
.	.	.	16d/	.	.	.	.	.	.	.	.	.	.	.	.	.	.	.	.	.
8r	.	.	16e/	.	16cc#\LL	.	.	.	.	.	.	.	.	.	.	.	.	.	.	.
.	.	.	16c#/JJ	.	16ee\JJ	.	.	.	.	.	.	.	.	.	.	.	.	.	.	.
!	!	!	!	!	!LO:LB:g=original	!	!	!	!	!	!	!	!	!	!	!	!	!	!	!
=59	=59	=59	=59	=59	=59	=59	=59	=59	=59	=59	=59	=59	=59	=59	=59	=59	=59	=59	=59	=59
4A\	6 4	.	16d/LL	.	8ff#\L	.	.	.	.	.	.	.	.	.	.	.	.	.	.	.
.	.	.	16c#/	.	.	.	.	.	.	.	.	.	.	.	.	.	.	.	.	.
.	.	.	16d/	.	8aa\	.	.	.	.	.	.	.	.	.	.	.	.	.	.	.
.	.	.	16e/	.	.	.	.	.	.	.	.	.	.	.	.	.	.	.	.	.
8r	.	.	16f#/	.	8ff#\J	.	.	.	.	.	.	.	.	.	.	.	.	.	.	.
.	.	.	16d/JJ	.	.	.	.	.	.	.	.	.	.	.	.	.	.	.	.	.
!	!	!	!LO:LB:g=original	!	!	!	!	!	!	!	!	!	!	!	!	!	!	!	!	!
=60	=60	=60	=60	=60	=60	=60	=60	=60	=60	=60	=60	=60	=60	=60	=60	=60	=60	=60	=60	=60
4A\	3	.	16A/LL	.	4ff#\	.	.	.	.	.	.	.	.	.	.	.	.	.	.	.
.	.	.	16B/	.	.	.	.	.	.	.	.	.	.	.	.	.	.	.	.	.
.	.	.	16c#/	.	.	.	.	.	.	.	.	.	.	.	.	.	.	.	.	.
.	.	.	16d/	.	.	.	.	.	.	.	.	.	.	.	.	.	.	.	.	.
8r	.	.	16e/	.	8ee\	.	.	.	.	.	.	.	.	.	.	.	.	.	.	.
.	.	.	16c#/JJ	.	.	.	.	.	.	.	.	.	.	.	.	.	.	.	.	.
=61	=61	=61	=61	=61	=61	=61	=61	=61	=61	=61	=61	=61	=61	=61	=61	=61	=61	=61	=61	=61
4G#X\	6 5	.	16B/LL	.	8dd\L	.	.	.	.	.	.	.	.	.	.	.	.	.	.	.
.	.	.	16c#/	.	.	.	.	.	.	.	.	.	.	.	.	.	.	.	.	.
.	.	.	16d/	.	8dd\	.	.	.	.	.	.	.	.	.	.	.	.	.	.	.
.	.	.	16e/	.	.	.	.	.	.	.	.	.	.	.	.	.	.	.	.	.
8r	.	.	16f#/	.	8dd\J	.	.	.	.	.	.	.	.	.	.	.	.	.	.	.
.	.	.	16g#X/JJ	.	.	.	.	.	.	.	.	.	.	.	.	.	.	.	.	.
=62	=62	=62	=62	=62	=62	=62	=62	=62	=62	=62	=62	=62	=62	=62	=62	=62	=62	=62	=62	=62
4A\	.	.	16a/LL	.	4cc#\	.	2.r	.	.	2.r	.	.	2.r	.	.	2.r	.	.	1.r	1.r
!	!	!	!LO:SIC:v:s=16g#/	!	!	!	!	!	!	!	!	!	!	!	!	!	!	!	!	!
.	.	.	16g/	.	.	.	.	.	.	.	.	.	.	.	.	.	.	.	.	.
.	.	.	16a/	.	.	.	.	.	.	.	.	.	.	.	.	.	.	.	.	.
.	.	.	16b/	.	.	.	.	.	.	.	.	.	.	.	.	.	.	.	.	.
8r	.	.	16cc#/	.	8ee\	.	.	.	.	.	.	.	.	.	.	.	.	.	.	.
.	.	.	16a/JJ	.	.	.	.	.	.	.	.	.	.	.	.	.	.	.	.	.
=63	=63	=63	=63	=63	=63	=63	=63	=63	=63	=63	=63	=63	=63	=63	=63	=63	=63	=63	=63	=63
!LO:TX:t=P:problem=mixed beam	!	!	!	!	!	!	!	!	!	!	!	!	!	!	!	!	!	!	!	!
8D\L	6	.	16f#/LL	.	8dd\L	.	.	.	.	.	.	.	.	.	.	.	.	.	.	.
.	.	.	16b/J	.	.	.	.	.	.	.	.	.	.	.	.	.	.	.	.	.
8E\	4	.	8a/	.	8cc#\	.	.	.	.	.	.	.	.	.	.	.	.	.	.	.
8EE/J	#	.	8g#X/J	.	8b\J	.	.	.	.	.	.	.	.	.	.	.	.	.	.	.
=64	=64	=64	=64	=64	=64	=64	=64	=64	=64	=64	=64	=64	=64	=64	=64	=64	=64	=64	=64	=64
!	!	!	!	!	!	!LO:DY:a:t=mf.	!	!	!	!	!	!	!LO:TX:b:i:t=Verte	!	!	!	!	!	!	!
4AA/	.	.	8a/L	.	8cc#\L	mf	4.r	.	.	4.r	.	.	4.r	.	.	4.r	.	.	.	.
.	.	.	16a/L	.	16aa\L	.	.	.	.	.	.	.	.	.	.	.	.	.	.	.
.	.	.	16gn/	.	16ggn\	.	.	.	.	.	.	.	.	.	.	.	.	.	.	.
8r	.	.	16f#/	.	16ff#\	.	.	.	.	.	.	.	.	.	.	.	.	.	.	.
.	.	.	16e/JJ	.	16ee\JJ	.	.	.	.	.	.	.	.	.	.	.	.	.	.	.
!LO:LB:g=original	!	!	!LO:LB:g=original	!	!	!	!	!	!	!LO:LB:g=original	!	!	!LO:PB:g=original	!	!	!	!	!	!	!
=65	=65	=65	=65	=65	=65	=65	=65	=65	=65	=65	=65	=65	=65	=65	=65	=65	=65	=65	=65	=65
!LO:TX:a:i:t=pedal&colon;	!	!	!	!	!	!	!	!	!LO:DY:a:t=p&colon;	!	!	!LO:DY:a:t=p&colon;	!	!	!LO:DY:a:t=p&colon;	!	!	!LO:DY:a:t=p.:rj	!	!
4.A\	.	.	8d#X/L	.	8dd#X\L	.	4.A\	a-	p	4.B\	a-	p	4.f#\	a-	p	4.dd#X\	a-	p	.	.
.	.	.	8d#/	.	8dd#\	.	.	.	.	.	.	.	.	.	.	.	.	.	.	.
.	.	.	8d#/J	.	8dd#\J	.	.	.	.	.	.	.	.	.	.	.	.	.	.	.
!	!	!	!	!	!LO:LB:g=original	!	!	!	!	!	!	!	!	!	!	!	!	!	!	!
=66	=66	=66	=66	=66	=66	=66	=66	=66	=66	=66	=66	=66	=66	=66	=66	=66	=66	=66	=66	=66
4.Gn\	.	.	8e/L	.	8ee\L	.	4.Gn\	.	.	4.B\	.	.	4.gn\	.	.	4.ee\	.	.	2.r	2.r
!	!	!	!LO:SIC:v:s=16d#/L	!	!	!	!	!	!	!	!	!	!	!	!	!	!	!	!	!
.	.	.	16d/L	.	16dd#X\L	.	.	.	.	.	.	.	.	.	.	.	.	.	.	.
.	.	.	16e/	.	16ee\	.	.	.	.	.	.	.	.	.	.	.	.	.	.	.
.	.	.	16f#/	.	16ff#\	.	.	.	.	.	.	.	.	.	.	.	.	.	.	.
.	.	.	16g/JJ	.	16gg\JJ	.	.	.	.	.	.	.	.	.	.	.	.	.	.	.
=67	=67	=67	=67	=67	=67	=67	=67	=67	=67	=67	=67	=67	=67	=67	=67	=67	=67	=67	=67	=67
4.D#X\	.	.	8a/L	.	8aa\L	.	4.D#X\	.	.	4.B\	.	.	4.a\	.	.	4.ff#\	.	.	.	.
.	.	.	8a/	.	8aa\	.	.	.	.	.	.	.	.	.	.	.	.	.	.	.
.	.	.	8a/J	.	8aa\J	.	.	.	.	.	.	.	.	.	.	.	.	.	.	.
=68	=68	=68	=68	=68	=68	=68	=68	=68	=68	=68	=68	=68	=68	=68	=68	=68	=68	=68	=68	=68
4E\	.	.	8gn/L	.	8gg\L	.	4E\	-men	.	4B\	-men	.	4g\	-men	.	4ee\	-men	.	4.r	4.r
.	.	.	16g/L	.	16gg\L	.	.	.	.	.	.	.	.	.	.	.	.	.	.	.
.	.	.	16f#/	.	16ff#\	.	.	.	.	.	.	.	.	.	.	.	.	.	.	.
8r	.	.	16e/	.	16ee\	.	8r	.	.	8r	.	.	8r	.	.	8r	.	.	.	.
.	.	.	16dn/JJ	.	16ddn\JJ	.	.	.	.	.	.	.	.	.	.	.	.	.	.	.
!	!	!	!	!	!	!	!	!	!	!	!	!	!	!	!	!	!	!	!LO:LB:g=original	!
=69	=69	=69	=69	=69	=69	=69	=69	=69	=69	=69	=69	=69	=69	=69	=69	=69	=69	=69	=69	=69
4.G\	.	.	8c#/L	.	8cc#\L	.	4.G\	a-	.	4.A\	a-	.	4.e\	a-	.	4.cc#\	a-	.	4.a/	4.ee\
.	.	.	8c#/	.	8cc#\	.	.	.	.	.	.	.	.	.	.	.	.	.	.	.
.	.	.	8c#/J	.	8cc#\J	.	.	.	.	.	.	.	.	.	.	.	.	.	.	.
=70	=70	=70	=70	=70	=70	=70	=70	=70	=70	=70	=70	=70	=70	=70	=70	=70	=70	=70	=70	=70
4.F#\	.	.	8d/L	.	8dd\L	.	4.F#\	.	.	4.A\	.	.	4.f#\	.	.	4.ddn\	.	.	4.dd\	4.ff#\
.	.	.	16c#/L	.	16cc#\L	.	.	.	.	.	.	.	.	.	.	.	.	.	.	.
.	.	.	16d/	.	16dd\	.	.	.	.	.	.	.	.	.	.	.	.	.	.	.
.	.	.	16e/	.	16ee\	.	.	.	.	.	.	.	.	.	.	.	.	.	.	.
.	.	.	16f#/JJ	.	16ff#\JJ	.	.	.	.	.	.	.	.	.	.	.	.	.	.	.
!	!	!	!LO:LB:g=original	!	!	!	!	!	!	!	!	!	!	!	!	!LO:LB:g=original	!	!	!	!LO:LB:g=original
=71	=71	=71	=71	=71	=71	=71	=71	=71	=71	=71	=71	=71	=71	=71	=71	=71	=71	=71	=71	=71
4.C#/	.	.	8g/L	.	8gg\L	.	4.C#/	.	.	4.A\	.	.	4.g\	.	.	4.ee\	.	.	4.ee\	4.gg\
.	.	.	8g/	.	8gg\	.	.	.	.	.	.	.	.	.	.	.	.	.	.	.
.	.	.	8g/J	.	8gg\J	.	.	.	.	.	.	.	.	.	.	.	.	.	.	.
!	!	!	!	!	!LO:LB:g=original	!	!	!	!	!	!	!	!	!	!	!	!	!	!	!
=72	=72	=72	=72	=72	=72	=72	=72	=72	=72	=72	=72	=72	=72	=72	=72	=72	=72	=72	=72	=72
!LO:TX:a:i:t=Orga&colon;	!	!	!	!	!	!	!	!	!	!	!	!	!	!	!	!	!	!	!	!
4Dn\	.	.	8f#/L	.	8ff#\L	.	4.D\	-men	.	4.A\	-men	.	4.f#\	-men	.	4.dd\	-men	.	4dd\	4ff#\
.	.	.	16a/L	.	16aa\L	.	.	.	.	.	.	.	.	.	.	.	.	.	.	.
.	.	.	16f#/	.	16ff#\	.	.	.	.	.	.	.	.	.	.	.	.	.	.	.
8F#\	6	.	16d/	.	16dd\	.	.	.	.	.	.	.	.	.	.	.	.	.	8r	8r
.	.	.	16cn/JJ	.	16ccn\JJ	.	.	.	.	.	.	.	.	.	.	.	.	.	.	.
!	!	!	!	!	!	!	!LO:LB:g=original	!	!	!	!	!	!	!	!	!	!	!	!	!
=73	=73	=73	=73	=73	=73	=73	=73	=73	=73	=73	=73	=73	=73	=73	=73	=73	=73	=73	=73	=73
!	!	!	!	!	!	!	!	!	!LO:DY:a:t=f&colon;	!	!	!	!	!	!LO:DY:a:t=f&colon;	!	!	!LO:DY:a:t=f&colon;	!LO:TX:a:t=1	!
8G\L	3	.	16B/LL	.	4b\	.	4G\	ſi-	f	4B\	ſi-	.	4g\	ſi-	f	4a\	ſi-	f	4.r	4.r
.	.	.	16d/	.	.	.	.	.	.	.	.	.	.	.	.	.	.	.	.	.
8G\	.	.	16d/	.	.	.	.	.	.	.	.	.	.	.	.	.	.	.	.	.
.	.	.	16d/	.	.	.	.	.	.	.	.	.	.	.	.	.	.	.	.	.
8G\J	4 2	.	16e/	.	24cc#X\LL	.	8G\	-cut	.	8A\	-cut	.	8e\	-cut	.	8dd\	-cut	.	.	.
.	.	.	.	.	24b\	.	.	.	.	.	.	.	.	.	.	.	.	.	.	.
.	.	.	16e/JJ	.	.	.	.	.	.	.	.	.	.	.	.	.	.	.	.	.
.	.	.	.	.	24cc#\JJ	.	.	.	.	.	.	.	.	.	.	.	.	.	.	.
!	!	!	!	!	!	!	!	!	!	!	!	!	!LO:LB:g=original	!	!	!	!	!	!	!
=74	=74	=74	=74	=74	=74	=74	=74	=74	=74	=74	=74	=74	=74	=74	=74	=74	=74	=74	=74	=74
*	*	*	*tremolo	*	*	*	*	*	*	*	*	*	*	*	*	*	*	*	*	*
8F#\L	6	.	16a/LL	.	4dd\	.	4F#\	e-	.	8G\L	e-	.	8f#\L	e-	.	4dd\	e-	.	4d/	4dd\
.	.	.	16a/	.	.	.	.	.	.	.	.	.	.	.	.	.	.	.	.	.
8F#\	.	.	16a/	.	.	.	.	.	.	8d\J	.	.	8a\J	.	.	.	.	.	.	.
.	.	.	16a/	.	.	.	.	.	.	.	.	.	.	.	.	.	.	.	.	.
8F#\J	6 5nr	.	16a/	.	8ccn\	.	8F#\	-rat	.	8d\	-rat	.	8a\	-rat	.	8ccn\	-rat	.	8r	8r
.	.	.	16a/JJ	.	.	.	.	.	.	.	.	.	.	.	.	.	.	.	.	.
*	*	*	*Xtremolo	*	*	*	*	*	*	*	*	*	*	*	*	*	*	*	*	*
!LO:LB:g=original	!	!	!	!	!	!	!	!	!	!LO:LB:g=original	!	!	!	!	!	!	!	!	!	!
=75	=75	=75	=75	=75	=75	=75	=75	=75	=75	=75	=75	=75	=75	=75	=75	=75	=75	=75	=75	=75
!	!	!	!	!	!	!	!	!	!	!	!	!	!	!	!	!	!	!	!LO:TX:a:t=1	!
8G\L	3	.	16d/LL	.	4b\	.	4G\	in	.	4B\	in	.	4g\	in	.	4b\	in	.	4.r	4.r
.	.	.	16d/	.	.	.	.	.	.	.	.	.	.	.	.	.	.	.	.	.
8G\	.	.	16g/	.	.	.	.	.	.	.	.	.	.	.	.	.	.	.	.	.
.	.	.	16g/	.	.	.	.	.	.	.	.	.	.	.	.	.	.	.	.	.
8G\J	4#r 2	.	16a/	.	24cc#X\LL	.	8G\	prin-	.	8A\	prin-	.	8e\	prin-	.	8cc#X\	prin-	.	.	.
.	.	.	.	.	24b\	.	.	.	.	.	.	.	.	.	.	.	.	.	.	.
.	.	.	16a/JJ	.	.	.	.	.	.	.	.	.	.	.	.	.	.	.	.	.
.	.	.	.	.	24cc#\JJ	.	.	.	.	.	.	.	.	.	.	.	.	.	.	.
=76	=76	=76	=76	=76	=76	=76	=76	=76	=76	=76	=76	=76	=76	=76	=76	=76	=76	=76	=76	=76
*	*	*	*tremolo	*	*	*	*	*	*	*	*	*	*	*	*	*	*	*	*	*
8F#\L	6_	.	16a/LL	.	4dd\	.	8F#\	-ci-	.	8A\	-ci-	.	8f#\	-ci-	.	8dd\	-ci-	.	4d/	4dd\
.	.	.	16a/	.	.	.	.	.	.	.	.	.	.	.	.	.	.	.	.	.
8F#\	.	.	16a/	.	.	.	8F#\	-pi-	.	8A\	-pi-	.	8a\	-pi-	.	8dd\	-pi-	.	.	.
.	.	.	16a/	.	.	.	.	.	.	.	.	.	.	.	.	.	.	.	.	.
8F#\J	x	.	16a/	.	16ff#\LL	.	8F#\	-o	.	8A\	-o	.	8a\	-o	.	8dd\	-o	.	8r	8r
.	.	.	16a/JJ	.	16aa\JJ	.	.	.	.	.	.	.	.	.	.	.	.	.	.	.
!	!	!	!	!	!	!	!	!	!	!	!	!	!	!	!	!LO:LB:g=original	!	!	!	!
=77	=77	=77	=77	=77	=77	=77	=77	=77	=77	=77	=77	=77	=77	=77	=77	=77	=77	=77	=77	=77
8C#/L	6 5	.	16a/LL	.	8gg\L	.	8C#/	&	.	8A\	&	.	8g\	&	.	8ee\	&	.	4.a/	4.ee\
.	.	.	16a/	.	.	.	.	.	.	.	.	.	.	.	.	.	.	.	.	.
8C#/	_ _	.	16a/	.	8ee\	.	8C#/	nunc	.	8A\	nunc	.	8g\	nunc	.	8ee\	nunc	.	.	.
.	.	.	16a/	.	.	.	.	.	.	.	.	.	.	.	.	.	.	.	.	.
8C#/J	x x	.	16a/	.	8gg\J	.	8C#/	&	.	8A\	&	.	8g\	&	.	8ee\	&	.	.	.
.	.	.	16a/JJ	.	.	.	.	.	.	.	.	.	.	.	.	.	.	.	.	.
*	*	*	*Xtremolo	*	*	*	*	*	*	*	*	*	*	*	*	*	*	*	*	*
!	!	!	!LO:LB:g=original	!	!LO:LB:g=original	!	!LO:LB:g=original	!	!	!	!	!	!	!	!	!	!	!	!	!
=78	=78	=78	=78	=78	=78	=78	=78	=78	=78	=78	=78	=78	=78	=78	=78	=78	=78	=78	=78	=78
8D\L	.	.	8a/L	.	8ff#\L	.	4D\	ſem-	.	4A\	ſem-	.	4f#\	ſem-	.	4dd\	ſem-	.	4.dd\	4.ff#\
8D\	.	.	8a/	.	16aa\L	.	.	.	.	.	.	.	.	.	.	.	.	.	.	.
.	.	.	.	.	16ff#\	.	.	.	.	.	.	.	.	.	.	.	.	.	.	.
8F#\J	6	.	8a/J	.	16ee\	.	8F#\	-per	.	8A\	-per	.	8f#\	-per	.	8dd\	-per	.	.	.
.	.	.	.	.	16dd\JJ	.	.	.	.	.	.	.	.	.	.	.	.	.	.	.
!	!	!	!	!	!	!	!	!	!	!	!	!	!LO:LB:g=original	!	!	!	!	!	!	!
=79	=79	=79	=79	=79	=79	=79	=79	=79	=79	=79	=79	=79	=79	=79	=79	=79	=79	=79	=79	=79
*	*	*	*	*	*	*	*	*	*	*	*ij	*	*	*	*	*	*ij	*	*	*
8G\L	6_	.	8b/L	.	16ee\LL	.	8G\	&	.	8B\	&	.	8g\	&	.	8ee\	&	.	8ee\L	8gg\L
.	.	.	.	.	16ff#\	.	.	.	.	.	.	.	.	.	.	.	.	.	.	.
8G\	.	.	8b/	.	16gg\	.	8G\	nunc	.	8B\	nunc	.	8g\	nunc	.	8ee\	nunc	.	8ee\	8gg\
.	.	.	.	.	16ee\	.	.	.	.	.	.	.	.	.	.	.	.	.	.	.
8G#X\J	5	.	8b/J	.	16ff#\	.	8G#X\	&	.	8B\	&	.	8f#\	&	.	8dd\	&	.	8dd\J	8ff#\J
.	.	.	.	.	16dd\JJ	.	.	.	.	.	.	.	.	.	.	.	.	.	.	.
=80	=80	=80	=80	=80	=80	=80	=80	=80	=80	=80	=80	=80	=80	=80	=80	=80	=80	=80	=80	=80
!LO:TX:t=P:problem=mixed beam	!	!	!	!	!	!	!	!	!	!	!	!	!	!	!	!	!	!	!LO:TX:t=P:problem=mixed beam	!
8A\L	4	.	8f#/L	.	8dd\L	.	8A\	ſem-	.	8A\	ſem-	.	8f#\	ſem-	.	8dd\	ſem-	.	8dd\L	8ff#\L
8AA/J	3	.	8e/	.	8cc#\	.	8AA/	.	.	8A\	-per	.	8e\	-per	.	8cc#\	-per	.	8a/J	8ee\J
*	*	*	*	*	*	*	*	*	*	*	*Xij	*	*	*	*	*	*Xij	*	*	*
!LO:TX:b:i:t=Verte	!	!	!LO:TX:b:i:t=Verte	!	!	!	!LO:TX:b:i:t=Verte	!	!	!	!	!	!	!	!	!	!	!	!	!
8r	.	.	8a/J	.	8a\J	.	8r	-per	.	8r	.	.	8r	.	.	8r	.	.	8r	8r
!LO:PB:g=original	!	!	!LO:PB:g=original	!	!	!	!LO:PB:g=original	!	!	!LO:LB:g=original	!	!	!	!	!	!	!	!	!	!LO:LB:g=original
=81	=81	=81	=81	=81	=81	=81	=81	=81	=81	=81	=81	=81	=81	=81	=81	=81	=81	=81	=81	=81
8C#/L	6 5	.	16a/LL	.	8gg\L	.	4C#/	&	.	4e\	&	.	4a\	&	.	4gg\	&	.	4.ee\	4.gg\
.	.	.	16a/	.	.	.	.	.	.	.	.	.	.	.	.	.	.	.	.	.
8C#/	_ _	.	16a/	.	8gg\	.	.	.	.	.	.	.	.	.	.	.	.	.	.	.
.	.	.	16a/	.	.	.	.	.	.	.	.	.	.	.	.	.	.	.	.	.
8C#/J	x x	.	16a/	.	8gg\J	.	8C#/	in	.	8e\	in	.	8a\	in	.	8gg\	in	.	.	.
.	.	.	16a/JJ	.	.	.	.	.	.	.	.	.	.	.	.	.	.	.	.	.
!	!	!	!	!	!	!	!	!	!	!	!	!	!	!	!	!LO:LB:g=original	!	!	!	!
=82	=82	=82	=82	=82	=82	=82	=82	=82	=82	=82	=82	=82	=82	=82	=82	=82	=82	=82	=82	=82
*	*	*	*tremolo	*	*	*	*	*	*	*	*	*	*	*	*	*	*	*	*	*
4D\	.	.	16a/LL	.	8ff#\L	.	8D\	ſae-	.	8d\	ſae-	.	8a\	ſae-	.	8ff#\	ſae-	.	4.dd\	4.ff#\
.	.	.	16a/	.	.	.	.	.	.	.	.	.	.	.	.	.	.	.	.	.
.	.	.	16a/	.	16aa\L	.	8D\	-cu-	.	8d\	-cu-	.	8a\	-cu-	.	8ff#\	-cu-	.	.	.
.	.	.	16a/	.	16ff#\	.	.	.	.	.	.	.	.	.	.	.	.	.	.	.
16E\LL	.	.	16a/	.	16ee\	.	16E\LL	-la	.	8d\	-la	.	8g#X\	-la	.	8dd\	-la	.	.	.
16F#\JJ	6	.	16a/JJ	.	16dd\JJ	.	16F#\JJ	.	.	.	.	.	.	.	.	.	.	.	.	.
=83	=83	=83	=83	=83	=83	=83	=83	=83	=83	=83	=83	=83	=83	=83	=83	=83	=83	=83	=83	=83
8G\L	4 2	.	16a/LL	.	8cc#\L	.	4G\	ſae-	.	4e\	ſae-	.	4a\	ſae-	.	4cc#\	ſae-	.	4.a/	4.ee\
.	.	.	16a/	.	.	.	.	.	.	.	.	.	.	.	.	.	.	.	.	.
8G\	_ _	.	16a/	.	8cc#\	.	.	.	.	.	.	.	.	.	.	.	.	.	.	.
.	.	.	16a/	.	.	.	.	.	.	.	.	.	.	.	.	.	.	.	.	.
8G\J	x x	.	16a/	.	8cc#\J	.	8G\	-cu-	.	8e\	-cu-	.	8a\	-cu-	.	8cc#\	-cu-	.	.	.
.	.	.	16a/JJ	.	.	.	.	.	.	.	.	.	.	.	.	.	.	.	.	.
!	!	!	!	!	!LO:LB:g=original	!	!	!	!	!	!	!	!LO:LB:g=original	!	!	!	!	!	!	!
=84	=84	=84	=84	=84	=84	=84	=84	=84	=84	=84	=84	=84	=84	=84	=84	=84	=84	=84	=84	=84
4F#\	6_	.	16a/LL	.	8dd\L	.	4F#\	-lo-	.	4d\	-lo-	.	4a\	-lo-	.	4dd\	-lo-	.	4.dd\	4.ff#\
.	.	.	16a/	.	.	.	.	.	.	.	.	.	.	.	.	.	.	.	.	.
.	.	.	16a/	.	16cc#\L	.	.	.	.	.	.	.	.	.	.	.	.	.	.	.
.	.	.	16a/	.	16dd\	.	.	.	.	.	.	.	.	.	.	.	.	.	.	.
16E\LL	.	.	16a/	.	16ee\	.	16E\LL	-rum	.	8d\	-rum	.	8a\	-rum	.	8ff#\	-rum	.	.	.
16D\JJ	x	.	16a/JJ	.	16ff#\JJ	.	16D\JJ	.	.	.	.	.	.	.	.	.	.	.	.	.
=85	=85	=85	=85	=85	=85	=85	=85	=85	=85	=85	=85	=85	=85	=85	=85	=85	=85	=85	=85	=85
8C#/L	6 5	.	16a/LL	.	8gg\L	.	4C#/	&	.	4e\	&	.	4a\	&	.	4gg\	&	.	4.ee\	4.gg\
.	.	.	16a/	.	.	.	.	.	.	.	.	.	.	.	.	.	.	.	.	.
8C#/	_ _	.	16a/	.	8gg\	.	.	.	.	.	.	.	.	.	.	.	.	.	.	.
.	.	.	16a/	.	.	.	.	.	.	.	.	.	.	.	.	.	.	.	.	.
8C#/J	x x	.	16a/	.	8gg\J	.	8C#/	in	.	8e\	in	.	8a\	in	.	8gg\	in	.	.	.
.	.	.	16a/JJ	.	.	.	.	.	.	.	.	.	.	.	.	.	.	.	.	.
=86	=86	=86	=86	=86	=86	=86	=86	=86	=86	=86	=86	=86	=86	=86	=86	=86	=86	=86	=86	=86
4D\	.	.	16a/LL	.	8ff#\L	.	8D\	ſae-	.	8d\	ſae-	.	8a\	ſae-	.	8ff#\	ſae-	.	4.dd\	4.ff#\
.	.	.	16a/	.	.	.	.	.	.	.	.	.	.	.	.	.	.	.	.	.
.	.	.	16a/	.	16aa\L	.	8D\	-cu-	.	8d\	-cu-	.	8a\	-cu-	.	8ff#\	-cu-	.	.	.
.	.	.	16a/	.	16ff#\	.	.	.	.	.	.	.	.	.	.	.	.	.	.	.
16E\LL	.	.	16a/	.	16ee\	.	16E\LL	-la	.	8d\	-la	.	8a\	-la	.	8dd\	-la	.	.	.
16F#\JJ	6	.	16a/JJ	.	16dd\JJ	.	16F#\JJ	.	.	.	.	.	.	.	.	.	.	.	.	.
!	!	!	!	!	!	!	!LO:LB:g=original	!	!	!LO:LB:g=original	!	!	!	!	!	!LO:LB:g=original	!	!	!	!
=87	=87	=87	=87	=87	=87	=87	=87	=87	=87	=87	=87	=87	=87	=87	=87	=87	=87	=87	=87	=87
8G\L	4 2	.	16a/LL	.	8cc#\L	.	4G\	ſae-	.	4e\	ſae-	.	4a\	ſae-	.	4cc#\	ſae-	.	4.a/	4.ee\
.	.	.	16a/	.	.	.	.	.	.	.	.	.	.	.	.	.	.	.	.	.
8G\	_ _	.	16a/	.	8cc#\	.	.	.	.	.	.	.	.	.	.	.	.	.	.	.
.	.	.	16a/	.	.	.	.	.	.	.	.	.	.	.	.	.	.	.	.	.
8G\J	x x	.	16a/	.	8cc#\J	.	8G\	-cu-	.	8e\	-cu-	.	8a\	-cu-	.	8cc#\	-cu-	.	.	.
.	.	.	16a/JJ	.	.	.	.	.	.	.	.	.	.	.	.	.	.	.	.	.
!LO:LB:g=original	!	!	!	!	!	!	!	!	!	!	!	!	!	!	!	!	!	!	!	!
=88	=88	=88	=88	=88	=88	=88	=88	=88	=88	=88	=88	=88	=88	=88	=88	=88	=88	=88	=88	=88
4F#\	6	.	16a/LL	.	8dd\L	.	4F#\	-lo-	.	4d\	-lo-	.	4a\	-lo-	.	4dd\	-lo-	.	4.dd\	4.ff#\
.	.	.	16a/	.	.	.	.	.	.	.	.	.	.	.	.	.	.	.	.	.
.	.	.	16a/	.	16cc#\L	.	.	.	.	.	.	.	.	.	.	.	.	.	.	.
.	.	.	16a/	.	16dd\	.	.	.	.	.	.	.	.	.	.	.	.	.	.	.
16E\LL	.	.	16a/	.	16ee\	.	16E\LL	-rum	.	8d\	-rum	.	8a\	-rum	.	8ff#\	-rum	.	.	.
16D\JJ	.	.	16a/JJ	.	16ff#\JJ	.	16D\JJ	.	.	.	.	.	.	.	.	.	.	.	.	.
!	!	!	!	!	!	!	!	!	!	!	!	!	!	!	!	!	!	!	!LO:LB:g=original	!
=89	=89	=89	=89	=89	=89	=89	=89	=89	=89	=89	=89	=89	=89	=89	=89	=89	=89	=89	=89	=89
8C#/L	6 5	.	16a/LL	.	4gg\	.	4.C#/	a-	.	4.e\	a-	.	4.a\	a-	.	4.gg\	a-	.	4.ee\	4.gg\
.	.	.	16a/	.	.	.	.	.	.	.	.	.	.	.	.	.	.	.	.	.
8AA/	.	.	16a/	.	.	.	.	.	.	.	.	.	.	.	.	.	.	.	.	.
.	.	.	16a/	.	.	.	.	.	.	.	.	.	.	.	.	.	.	.	.	.
8C#/J	.	.	16a/	.	16ee\LL	.	.	.	.	.	.	.	.	.	.	.	.	.	.	.
.	.	.	16a/JJ	.	16gg\JJ	.	.	.	.	.	.	.	.	.	.	.	.	.	.	.
!	!	!	!	!	!LO:LB:g=original	!	!	!	!	!	!	!	!LO:LB:g=original	!	!	!	!	!	!	!
=90	=90	=90	=90	=90	=90	=90	=90	=90	=90	=90	=90	=90	=90	=90	=90	=90	=90	=90	=90	=90
8D\L	.	.	16a/LL	.	8ff#\L	.	4.D\	.	.	4.d\	.	.	4.a\	.	.	4.ff#\	.	.	4.dd\	4.ff#\
.	.	.	16a/	.	.	.	.	.	.	.	.	.	.	.	.	.	.	.	.	.
8F#\	.	.	16a/	.	8dd\	.	.	.	.	.	.	.	.	.	.	.	.	.	.	.
.	.	.	16a/	.	.	.	.	.	.	.	.	.	.	.	.	.	.	.	.	.
8D\J	.	.	16a/	.	8ff#\J	.	.	.	.	.	.	.	.	.	.	.	.	.	.	.
.	.	.	16a/JJ	.	.	.	.	.	.	.	.	.	.	.	.	.	.	.	.	.
!	!	!	!LO:LB:g=original	!	!	!	!	!	!	!	!	!	!	!	!	!	!	!	!	!
=91	=91	=91	=91	=91	=91	=91	=91	=91	=91	=91	=91	=91	=91	=91	=91	=91	=91	=91	=91	=91
8C#/L	6 5	.	16a/LL	.	4gg\	.	4.C#/	.	.	4.e\	.	.	4.a\	.	.	4.gg\	.	.	4.ee\	4.gg\
.	.	.	16a/	.	.	.	.	.	.	.	.	.	.	.	.	.	.	.	.	.
8AA/	.	.	16a/	.	.	.	.	.	.	.	.	.	.	.	.	.	.	.	.	.
.	.	.	16a/	.	.	.	.	.	.	.	.	.	.	.	.	.	.	.	.	.
8C#/J	.	.	16a/	.	16ee\LL	.	.	.	.	.	.	.	.	.	.	.	.	.	.	.
.	.	.	16a/JJ	.	16gg\JJ	.	.	.	.	.	.	.	.	.	.	.	.	.	.	.
=92	=92	=92	=92	=92	=92	=92	=92	=92	=92	=92	=92	=92	=92	=92	=92	=92	=92	=92	=92	=92
8D\L	.	.	16a/LL	.	8ff#\L	.	4.D\	.	.	4.d\	.	.	4.a\	.	.	4.ff#\	.	.	4.dd\	4.ff#\
.	.	.	16a/	.	.	.	.	.	.	.	.	.	.	.	.	.	.	.	.	.
8F#\	.	.	16a/	.	8dd\	.	.	.	.	.	.	.	.	.	.	.	.	.	.	.
.	.	.	16a/	.	.	.	.	.	.	.	.	.	.	.	.	.	.	.	.	.
8D\J	.	.	16a/	.	8ff#\J	.	.	.	.	.	.	.	.	.	.	.	.	.	.	.
.	.	.	16a/JJ	.	.	.	.	.	.	.	.	.	.	.	.	.	.	.	.	.
!	!	!	!	!	!	!	!	!	!	!	!	!	!	!	!	!	!	!	!	!LO:LB:g=original
=93	=93	=93	=93	=93	=93	=93	=93	=93	=93	=93	=93	=93	=93	=93	=93	=93	=93	=93	=93	=93
*tremolo	*	*	*	*	*	*	*	*	*	*	*	*	*	*	*	*	*	*	*	*
8C#/L	6 5	.	16a/LL	.	8gg\L	.	4.C#/	.	.	4.e\	.	.	4.a\	.	.	4.gg\	.	.	4.a/	4.ee\
.	.	.	16a/	.	.	.	.	.	.	.	.	.	.	.	.	.	.	.	.	.
8C#/	.	.	16a/	.	16ff#\L	.	.	.	.	.	.	.	.	.	.	.	.	.	.	.
.	.	.	16a/	.	16gg\	.	.	.	.	.	.	.	.	.	.	.	.	.	.	.
8C#/J	.	.	16a/	.	16aa\	.	.	.	.	.	.	.	.	.	.	.	.	.	.	.
.	.	.	16a/JJ	.	16gg\JJ	.	.	.	.	.	.	.	.	.	.	.	.	.	.	.
=94	=94	=94	=94	=94	=94	=94	=94	=94	=94	=94	=94	=94	=94	=94	=94	=94	=94	=94	=94	=94
8D\L	.	.	16a/LL	.	8ff#\L	.	4.D\	.	.	4.d\	.	.	4.a\	.	.	4.ff#\	.	.	4.dd\	4.ff#\
.	.	.	16a/	.	.	.	.	.	.	.	.	.	.	.	.	.	.	.	.	.
8D\	.	.	16a/	.	8aa\	.	.	.	.	.	.	.	.	.	.	.	.	.	.	.
.	.	.	16a/	.	.	.	.	.	.	.	.	.	.	.	.	.	.	.	.	.
8D\J	.	.	16a/	.	8ddd\J	.	.	.	.	.	.	.	.	.	.	.	.	.	.	.
.	.	.	16a/JJ	.	.	.	.	.	.	.	.	.	.	.	.	.	.	.	.	.
*Xtremolo	*	*	*Xtremolo	*	*	*	*	*	*	*	*	*	*	*	*	*	*	*	*	*
!	!	!	!	!	!	!	!LO:LB:g=original	!	!	!	!	!	!	!	!	!LO:PB:g=original	!	!	!	!
=95	=95	=95	=95	=95	=95	=95	=95	=95	=95	=95	=95	=95	=95	=95	=95	=95	=95	=95	=95	=95
!LO:TX:t=P:problem=mixed beam	!	!	!	!	!	!	!LO:TX:t=P:problem=mixed beam	!	!	!	!	!	!	!	!	!	!	!	!LO:TX:t=P:problem=mixed beam	!
8G\L	6	.	8ee\L	.	16bb\LL	.	8G\L	.	.	8B\	.	.	8g\L	.	.	8ee\L	.	.	8ee\L	8gg\L
.	.	.	.	.	16gg\J	.	.	.	.	.	.	.	.	.	.	.	.	.	.	.
8A\	4	.	8dd\	.	8ff#\	.	8A\	.	.	4A\	.	.	8f#\	.	.	8dd\	.	.	8dd\	8ff#\
8AA/J	3	.	8cc#\J	.	8ee\J	.	8AA/J	.	.	.	.	.	8e\J	.	.	8cc#\J	.	.	8a/J	8ee\J
!LO:LB:g=original	!	!	!	!	!	!	!	!	!	!LO:LB:g=original	!	!	!	!	!	!	!	!	!	!
=96	=96	=96	=96	=96	=96	=96	=96	=96	=96	=96	=96	=96	=96	=96	=96	=96	=96	=96	=96	=96
8D\L	.	.	8a/L	.	8ff#\L	.	4D\	-men	.	4A\	-men	.	4f#\	-men	.	4dd\	-men	.	4.dd\	4.ff#\
8D\	.	.	8a/	.	16aa\L	.	.	.	.	.	.	.	.	.	.	.	.	.	.	.
.	.	.	.	.	16ff#\	.	.	.	.	.	.	.	.	.	.	.	.	.	.	.
8F#\J	6	.	8a/J	.	16ee\	.	8F#\	a-	.	8A\	a-	.	8f#\	a-	.	8dd\	a-	.	.	.
.	.	.	.	.	16dd\JJ	.	.	.	.	.	.	.	.	.	.	.	.	.	.	.
!	!	!	!	!	!LO:LB:g=original	!	!	!	!	!	!	!	!	!	!	!	!	!	!	!
=97	=97	=97	=97	=97	=97	=97	=97	=97	=97	=97	=97	=97	=97	=97	=97	=97	=97	=97	=97	=97
8G\L	6	.	8b/L	.	16ee\LL	.	4G\	.	.	4B\	.	.	4g\	.	.	4ee\	.	.	4ee\	4gg\
.	.	.	.	.	16ff#\	.	.	.	.	.	.	.	.	.	.	.	.	.	.	.
8G\	.	.	8b/	.	16gg\	.	.	.	.	.	.	.	.	.	.	.	.	.	.	.
.	.	.	.	.	16ee\	.	.	.	.	.	.	.	.	.	.	.	.	.	.	.
8A\J	3	.	8e/J	.	16dd\	.	8A\	.	.	8A\	.	.	8e\	.	.	8cc#\	.	.	8a/	8ee\
.	.	.	.	.	16cc#\JJ	.	.	.	.	.	.	.	.	.	.	.	.	.	.	.
!	!	!	!	!	!	!	!	!	!	!	!	!	!LO:LB:g=original	!	!	!	!	!	!	!
=98	=98	=98	=98	=98	=98	=98	=98	=98	=98	=98	=98	=98	=98	=98	=98	=98	=98	=98	=98	=98
8B\L	.	.	8f#/L	.	16dd\LL	.	4B\	-men	.	4A\	-men	.	4f#\	men	.	4cc#\	men	.	4f#/	4dd\
.	.	.	.	.	16ff#\	.	.	.	.	.	.	.	.	.	.	.	.	.	.	.
8B\	.	.	8f#/	.	16ee\	.	.	.	.	.	.	.	.	.	.	.	.	.	.	.
.	.	.	.	.	16dd\	.	.	.	.	.	.	.	.	.	.	.	.	.	.	.
8F#\J	6	.	8a/J	.	16cc#\	.	8F#\	a-	.	8A\	a	.	8f#\	a-	.	8dd\	a-	.	8dd\	8ff#\
.	.	.	.	.	16dd\JJ	.	.	.	.	.	.	.	.	.	.	.	.	.	.	.
=99	=99	=99	=99	=99	=99	=99	=99	=99	=99	=99	=99	=99	=99	=99	=99	=99	=99	=99	=99	=99
8G\L	6:	.	8b/L	.	16ee\LL	.	4G\	.	.	4B\	.	.	4g\	.	.	4ee\	.	.	4ee\	4gg\
.	.	.	.	.	16ff#\	.	.	.	.	.	.	.	.	.	.	.	.	.	.	.
8G\	.	.	8b/	.	16gg\	.	.	.	.	.	.	.	.	.	.	.	.	.	.	.
.	.	.	.	.	16ee\	.	.	.	.	.	.	.	.	.	.	.	.	.	.	.
8A\J	3	.	8e/J	.	16dd\	.	8A\	.	.	8A\	.	.	8e\	.	.	8cc#\	.	.	8a/	8ee\
.	.	.	.	.	16cc#\JJ	.	.	.	.	.	.	.	.	.	.	.	.	.	.	.
!	!	!	!LO:LB:g=original	!	!	!	!	!	!	!	!	!	!	!	!	!	!	!	!	!
=100	=100	=100	=100	=100	=100	=100	=100	=100	=100	=100	=100	=100	=100	=100	=100	=100	=100	=100	=100	=100
8B\L	.	.	8f#/L	.	16dd\LL	.	4B\	.	.	4A\	-men	.	4f#\	-men	.	4dd\	-men	.	4f#/	4dd\
.	.	.	.	.	16ff#\	.	.	.	.	.	.	.	.	.	.	.	.	.	.	.
8B\	.	.	8f#/	.	16ee\	.	.	.	.	.	.	.	.	.	.	.	.	.	.	.
.	.	.	.	.	16dd\	.	.	.	.	.	.	.	.	.	.	.	.	.	.	.
8F#\J	6	.	8a/J	.	16cc#\	.	8F#\	.	.	8A\	a-	.	8f#\	a-	.	8dd\	a-	.	8dd\	8ff#\
.	.	.	.	.	16dd\JJ	.	.	.	.	.	.	.	.	.	.	.	.	.	.	.
!	!	!	!	!	!	!	!LO:LB:g=original	!	!	!	!	!	!	!	!	!LO:LB:g=original	!	!	!	!
=101	=101	=101	=101	=101	=101	=101	=101	=101	=101	=101	=101	=101	=101	=101	=101	=101	=101	=101	=101	=101
*	*	*	*tremolo	*	*	*	*	*	*	*	*	*	*	*	*	*	*	*	*	*
8G\L	6	.	8b\L	.	16ee\LL	.	4G\	.	.	4.B\	.	.	4g\	.	.	4ee\	.	.	4ee\	4gg\
.	.	.	.	.	16ff#\	.	.	.	.	.	.	.	.	.	.	.	.	.	.	.
8G\	.	.	8b\	.	16gg\	.	.	.	.	.	.	.	.	.	.	.	.	.	.	.
.	.	.	.	.	16ee\	.	.	.	.	.	.	.	.	.	.	.	.	.	.	.
8G#X\J	5	.	8b\J	.	16ff#\	.	8G#X\	.	.	.	.	.	8f#\	.	.	8cc#\	.	.	8dd\	8ff#\
.	.	.	.	.	16dd\JJ	.	.	.	.	.	.	.	.	.	.	.	.	.	.	.
!	!	!	!	!	!LO:LB:g=original	!	!	!	!	!	!	!	!	!	!	!	!	!	!	!LO:LB:g=original
=102	=102	=102	=102	=102	=102	=102	=102	=102	=102	=102	=102	=102	=102	=102	=102	=102	=102	=102	=102	=102
8A\L	3	.	8a/L	.	16dd\LL	.	8A\L	.	.	4.A\	.	.	4e\	.	.	4cc#\	.	.	4a/	4ee\
.	.	.	.	.	16cc#\	.	.	.	.	.	.	.	.	.	.	.	.	.	.	.
8Gn\	.	.	8a/	.	16b\	.	8Gn\	.	.	.	.	.	.	.	.	.	.	.	.	.
.	.	.	.	.	16ee\	.	.	.	.	.	.	.	.	.	.	.	.	.	.	.
8F#\J	6	.	8a/J	.	16dd\	.	8F#\J	.	.	.	.	.	8f#\	.	.	8dd\	.	.	8dd\	8ff#\
.	.	.	.	.	16ff#\JJ	.	.	.	.	.	.	.	.	.	.	.	.	.	.	.
*	*	*	*Xtremolo	*	*	*	*	*	*	*	*	*	*	*	*	*	*	*	*	*
=103	=103	=103	=103	=103	=103	=103	=103	=103	=103	=103	=103	=103	=103	=103	=103	=103	=103	=103	=103	=103
!LO:TX:t=P:problem=mixed beam	!	!	!	!	!	!	!LO:TX:t=P:problem=mixed beam	!	!	!	!	!	!	!	!	!	!	!	!LO:TX:t=P:problem=mixed beam	!
8G\L	6	.	8g/L	.	16gg\LL	.	8G\L	.	.	8B\	.	.	8g\L	.	.	8ee\L	.	.	8ee\L	8gg\L
.	.	.	.	.	16ee\J	.	.	.	.	.	.	.	.	.	.	.	.	.	.	.
8A\	4	.	8f#/	.	8dd\	.	8A\	.	.	4A\	.	.	8f#\	.	.	8dd\	.	.	8dd\	8ff#\
8AA/J	3	.	8e/J	.	8cc#\J	.	8AA/J	.	.	.	.	.	8e\J	.	.	8cc#\J	.	.	8a/J	8ee\J
!LO:LB:g=original	!	!	!	!	!	!	!	!	!	!LO:LB:g=original	!	!	!LO:LB:g=original	!	!	!	!	!	!	!
=104	=104	=104	=104	=104	=104	=104	=104	=104	=104	=104	=104	=104	=104	=104	=104	=104	=104	=104	=104	=104
8D\	.	.	8f#/	.	16dd\LL	.	8D\	-men	.	8A\	-men	.	8f#\	-men	.	8dd\	-men	.	8f#/	8dd\
.	.	.	.	.	16ff#\	.	.	.	.	.	.	.	.	.	.	.	.	.	.	.
8r	.	.	8r	.	16aa\	.	8r	.	.	8r	.	.	8r	.	.	8r	.	.	8r	8r
.	.	.	.	.	16ff#\	.	.	.	.	.	.	.	.	.	.	.	.	.	.	.
8r	.	.	8d/	.	16dd\	.	8r	.	.	8r	.	.	8r	.	.	8r	.	.	8ryy	8r
.	.	.	.	.	16ff#\JJ	.	.	.	.	.	.	.	.	.	.	.	.	.	.	.
!	!	!	!	!	!	!	!	!	!	!	!	!	!	!	!	!	!	!	!LO:LB:g=original	!
=105	=105	=105	=105	=105	=105	=105	=105	=105	=105	=105	=105	=105	=105	=105	=105	=105	=105	=105	=105	=105
8r	.	.	8G/L	.	16ee\LL	.	8r	.	.	8r	.	.	8r	.	.	8r	.	.	8r	8r
.	.	.	.	.	16gg\	.	.	.	.	.	.	.	.	.	.	.	.	.	.	.
8r	.	.	8A/	.	16ff#\	.	8r	.	.	8r	.	.	8r	.	.	8r	.	.	8r	8r
.	.	.	.	.	16ee\	.	.	.	.	.	.	.	.	.	.	.	.	.	.	.
8A\	.	.	8e/J	.	16dd\	.	8A\	a-	.	8A\	a-	.	8g\	a-	.	8ee\	a-	.	8ee\	8ee\
.	.	.	.	.	16cc#\JJ	.	.	.	.	.	.	.	.	.	.	.	.	.	.	.
=106	=106	=106	=106	=106	=106	=106	=106	=106	=106	=106	=106	=106	=106	=106	=106	=106	=106	=106	=106	=106
8D\	.	.	8f#/	.	16dd\LL	.	8D\	-men	.	8A\	-men	.	8f#\	-men	.	8dd\	-men	.	8dd\	8dd\
.	.	.	.	.	16ff#\	.	.	.	.	.	.	.	.	.	.	.	.	.	.	.
8r	.	.	8r	.	16aa\	.	8r	.	.	8r	.	.	8r	.	.	8r	.	.	8r	8r
.	.	.	.	.	16ff#\	.	.	.	.	.	.	.	.	.	.	.	.	.	.	.
8r	.	.	8d/	.	16dd\	.	8r	.	.	8r	.	.	8r	.	.	8r	.	.	8r	8r
.	.	.	.	.	16ff#\JJ	.	.	.	.	.	.	.	.	.	.	.	.	.	.	.
!	!	!	!LO:LB:g=original	!	!LO:LB:g=original	!	!LO:LB:g=original	!	!	!	!	!	!	!	!	!LO:LB:g=original	!	!	!	!
=107	=107	=107	=107	=107	=107	=107	=107	=107	=107	=107	=107	=107	=107	=107	=107	=107	=107	=107	=107	=107
8r	.	.	8G/L	.	16ee\LL	.	8r	.	.	8r	.	.	8r	.	.	8r	.	.	8r	8r
.	.	.	.	.	16gg\	.	.	.	.	.	.	.	.	.	.	.	.	.	.	.
8r	.	.	8A/	.	16ff#\	.	8r	.	.	8r	.	.	8r	.	.	8r	.	.	8r	8r
.	.	.	.	.	16ee\	.	.	.	.	.	.	.	.	.	.	.	.	.	.	.
*	*	*	*	*	*	*	*	*	*	*	*ij	*	*	*	*	*	*	*	*	*
8A\	.	.	8e/J	.	16dd\	.	8A\	a-	.	8A\	a-	.	8g\	a-	.	8ee\	a-	.	8ee\	8ee\
.	.	.	.	.	16cc#\JJ	.	.	.	.	.	.	.	.	.	.	.	.	.	.	.
=108	=108	=108	=108	=108	=108	=108	=108	=108	=108	=108	=108	=108	=108	=108	=108	=108	=108	=108	=108	=108
8d\L	.	.	8f#\L	.	8dd\L	.	8D\	-men	.	8A\	-men	.	8f#\	-men	.	8dd\	-men	.	8dd\L	8dd\L
*	*	*	*	*	*	*	*	*	*	*	*Xij	*	*	*	*	*	*	*	*	*
8A\	.	.	8f#\ 8dd	.	8d\ 8a 8ff#	.	8r	.	.	8r	.	.	8r	.	.	8r	.	.	8dd\	8dd\
8F#\J	.	.	8f#\J 8dd	.	8d\J 8a 8ff#	.	8r	.	.	8r	.	.	8r	.	.	8r	.	.	8dd\J	8dd\J
=109	=109	=109	=109	=109	=109	=109	=109	=109	=109	=109	=109	=109	=109	=109	=109	=109	=109	=109	=109	=109
4D\	.	.	4f#\ 4dd	.	4d\ 4a 4ff#	.	4.r	.	.	4.r	.	.	4.r	.	.	4.r	.	.	4dd\	4dd\
.	.	.	.	.	.	.	.	.	.	.	.	.	.	.	.	.	.	.	.	.
8r	.	.	8r	.	8r	.	.	.	.	.	.	.	.	.	.	.	.	.	8r	8r
==	==	==	==	==	==	==	==	==	==	==	==	==	==	==	==	==	==	==	==	==
*-	*-	*-	*-	*-	*-	*-	*-	*-	*-	*-	*-	*-	*-	*-	*-	*-	*-	*-	*-	*-
!!!system-decoration: [(s1,s2)][(s3,s4,s5,s6)][(s7,s8)]s9
!!!RDF**kern: < = below
!!!RDF**kern: > = above
!!!RDF**kern: | = vertical stroke
!!!ENC: Tomasz Grochalski
!!!END: 2020-07-18
!!!ENC: Marta Chmielewska
!!!END: 2022-01-14
!!!YEC: Copyright 2022 Narodowy Instytut Fryderyka Chopina (https://polishscores.org)
!!!YEM: License CC-BY-4.0 (https://creativecommons.org/licenses/by/4.0)
